dist/LUTS/Anime7.3dl
0 65 130 195 260 325 390 455 520 585 650 715 780 845 910 975 1040 1105 1170 1235 1300 1365 1430 1495 1560 1625 1690 1755 1820 1885 1950 2015 2080 2145 2210 2275 2340 2405 2470 2535 2600 2665 2730 2795 2860 2925 2990 3055 3120 3185 3250 3315 3380 3445 3510 3575 3640 3705 3770 3835 3900 3965 4030 4095
0 0 377
0 0 377
0 0 377
0 0 377
0 0 377
64 0 376
150 0 376
256 0 375
365 0 374
418 2 372
467 15 370
515 31 368
564 52 366
615 73 363
670 93 359
730 113 353
796 132 345
865 160 336
935 197 325
1011 247 306
1092 304 280
1177 351 250
1318 385 199
1495 413 128
1680 442 42
1864 473 0
2036 513 0
2198 569 0
2342 638 0
2468 716 0
2569 795 0
2655 875 0
2726 949 0
2787 1019 0
2836 1080 0
2882 1140 0
2922 1194 0
2958 1243 0
2989 1288 0
3020 1331 0
3048 1372 0
3076 1411 0
3101 1445 0
3129 1481 0
3155 1515 0
3183 1550 0
3211 1584 0
3241 1618 0
3273 1653 0
3306 1686 0
3341 1719 0
3378 1751 0
3416 1781 0
3457 1811 0
3498 1839 0
3542 1865 0
3589 1890 0
3637 1911 0
3689 1931 0
3749 1952 0
3817 1973 0
3902 1996 0
4013 2021 0
4095 2046 0
0 0 379
0 2 379
0 0 377
0 0 379
2 0 377
64 0 376
147 0 376
256 0 375
362 0 374
418 2 372
463 17 370
511 32 368
558 50 366
608 72 363
662 93 360
720 111 354
783 134 346
852 154 338
920 191 327
994 235 311
1072 289 287
1156 342 258
1291 380 209
1462 410 141
1641 438 60
1820 465 0
1990 501 0
2154 552 0
2304 618 0
2433 694 0
2541 772 0
2632 853 0
2708 929 0
2770 1000 0
2823 1064 0
2870 1124 0
2912 1180 0
2949 1232 0
2982 1277 0
3013 1321 0
3043 1363 0
3070 1402 0
3097 1439 0
3125 1476 0
3152 1511 0
3180 1547 0
3208 1581 0
3238 1615 0
3270 1649 0
3303 1683 0
3336 1715 0
3373 1747 0
3412 1778 0
3451 1807 0
3491 1834 0
3535 1860 0
3580 1885 0
3626 1906 0
3679 1927 0
3738 1948 0
3806 1970 0
3891 1993 0
4004 2019 0
4095 2044 0
0 2 382
0 1 381
0 1 379
0 0 379
0 0 378
63 0 378
139 0 376
245 0 375
362 0 374
413 4 372
458 19 370
505 35 368
551 54 366
601 72 363
653 90 360
709 111 355
773 129 348
837 154 339
907 187 329
980 230 315
1056 287 291
1140 337 263
1275 379 214
1441 409 149
1616 434 72
1794 462 0
1966 497 0
2130 545 0
2281 608 0
2414 682 0
2523 759 0
2618 841 0
2696 917 0
2760 988 0
2814 1052 0
2862 1114 0
2904 1170 0
2942 1222 0
2975 1268 0
3007 1313 0
3037 1355 0
3066 1396 0
3092 1433 0
3120 1470 0
3148 1507 0
3176 1543 0
3205 1577 0
3235 1612 0
3266 1646 0
3299 1680 0
3332 1711 0
3368 1743 0
3405 1773 0
3445 1803 0
3485 1830 0
3527 1856 0
3571 1880 0
3616 1901 0
3668 1922 0
3726 1943 0
3795 1966 0
3880 1990 0
3995 2017 0
4095 2043 0
0 1 387
0 5 389
0 5 384
0 1 380
0 0 378
53 0 380
138 0 377
243 0 377
357 0 374
410 4 372
456 20 370
501 37 368
545 57 366
595 76 363
645 95 360
700 112 355
761 134 348
827 159 340
894 195 330
967 236 317
1043 286 294
1126 335 267
1264 380 217
1426 409 155
1600 434 79
1776 462 0
1947 495 0
2112 542 0
2263 602 0
2398 674 0
2510 750 0
2606 830 0
2685 906 0
2751 978 0
2805 1041 0
2854 1103 0
2897 1160 0
2935 1212 0
2969 1259 0
3002 1305 0
3032 1348 0
3061 1389 0
3089 1428 0
3117 1466 0
3145 1503 0
3173 1540 0
3202 1574 0
3232 1609 0
3263 1643 0
3296 1677 0
3329 1708 0
3364 1740 0
3400 1769 0
3439 1799 0
3477 1825 0
3519 1851 0
3561 1875 0
3605 1896 0
3656 1918 0
3713 1939 0
3783 1962 0
3868 1987 0
3984 2015 0
4095 2042 0
0 9 396
0 9 396
0 13 393
0 11 388
0 4 383
53 0 380
130 0 381
244 0 380
355 0 377
410 4 372
453 20 370
497 39 368
542 58 366
588 79 363
639 99 360
693 118 355
753 136 349
817 164 341
884 196 331
956 239 319
1032 286 297
1119 338 268
1259 381 218
1418 410 156
1587 436 83
1762 462 0
1932 494 0
2096 538 0
2248 596 0
2383 665 0
2497 739 0
2594 819 0
2673 894 0
2741 966 0
2797 1032 0
2846 1093 0
2891 1151 0
2929 1204 0
2964 1252 0
2997 1299 0
3028 1343 0
3058 1385 0
3086 1423 0
3115 1464 0
3143 1501 0
3172 1538 0
3200 1573 0
3231 1609 0
3262 1643 0
3293 1675 0
3326 1707 0
3361 1738 0
3397 1768 0
3434 1796 0
3471 1822 0
3512 1848 0
3552 1871 0
3596 1893 0
3646 1914 0
3702 1935 0
3772 1959 0
3858 1985 0
3974 2013 0
4095 2041 0
0 18 408
0 17 410
0 25 409
0 24 395
0 20 392
56 6 386
137 0 383
245 0 382
357 0 381
407 0 378
454 16 372
496 35 369
539 55 366
585 81 363
634 98 361
686 122 355
746 142 349
811 165 341
877 199 331
947 240 320
1023 288 298
1122 344 266
1260 384 217
1414 411 157
1580 435 86
1751 460 2
1919 492 0
2082 534 0
2233 589 0
2368 657 0
2482 730 0
2580 807 0
2662 883 0
2730 955 0
2788 1021 0
2840 1085 0
2884 1143 0
2924 1197 0
2960 1247 0
2994 1295 0
3026 1340 0
3056 1383 0
3085 1423 0
3114 1463 0
3143 1501 0
3171 1537 0
3199 1572 0
3229 1608 0
3260 1642 0
3291 1675 0
3322 1705 0
3357 1735 0
3392 1765 0
3428 1792 0
3464 1818 0
3504 1844 0
3545 1867 0
3587 1889 0
3636 1911 0
3694 1933 0
3762 1957 0
3850 1983 0
3969 2013 0
4095 2041 0
0 25 424
0 29 426
0 36 427
0 39 417
0 32 403
23 31 398
134 19 391
255 0 384
357 0 386
409 0 382
452 7 378
495 26 371
539 46 367
583 73 364
632 94 361
685 114 356
742 140 349
806 165 342
872 195 332
942 231 321
1017 281 300
1130 346 263
1264 384 216
1415 410 158
1576 432 89
1743 457 7
1906 486 0
2066 526 0
2215 579 0
2349 643 0
2465 714 0
2565 792 0
2648 868 0
2719 941 0
2778 1009 0
2831 1074 0
2877 1134 0
2918 1190 0
2955 1240 0
2990 1290 0
3023 1336 0
3054 1380 0
3083 1420 0
3112 1460 0
3141 1498 0
3169 1535 0
3197 1569 0
3226 1604 0
3256 1638 0
3286 1671 0
3317 1701 0
3351 1732 0
3385 1760 0
3421 1788 0
3456 1814 0
3495 1839 0
3535 1862 0
3578 1886 0
3628 1909 0
3686 1932 0
3755 1956 0
3847 1984 0
3966 2014 0
4095 2043 0
0 40 443
0 44 444
0 52 446
0 59 443
0 58 422
29 52 412
112 48 406
251 33 394
360 1 385
408 0 387
454 0 384
497 6 377
541 27 369
584 54 365
631 77 362
682 102 358
740 124 351
801 151 343
866 177 334
935 216 323
1018 266 302
1134 339 264
1263 376 219
1407 401 164
1561 423 99
1720 447 22
1878 473 0
2034 509 0
2181 557 0
2315 619 0
2431 686 0
2534 761 0
2621 837 0
2695 910 0
2756 978 0
2811 1045 0
2859 1107 0
2903 1166 0
2941 1219 0
2976 1270 0
3010 1318 0
3041 1362 0
3071 1403 0
3099 1443 0
3127 1480 0
3155 1517 0
3181 1550 0
3209 1584 0
3237 1618 0
3266 1649 0
3294 1679 0
3325 1709 0
3356 1737 0
3389 1765 0
3422 1789 0
3457 1814 0
3497 1839 0
3539 1864 0
3582 1888 0
3636 1912 0
3697 1935 0
3762 1957 0
3833 1978 0
3912 1998 0
0 78 481
0 78 481
0 85 482
0 96 481
0 102 462
52 93 434
141 84 426
254 86 416
376 68 403
434 22 386
484 0 385
533 0 380
583 13 370
634 38 364
685 68 360
746 91 353
809 120 345
875 150 336
943 184 325
1018 226 308
1139 308 269
1283 363 218
1436 390 158
1604 412 87
1775 436 2
1943 467 0
2101 510 0
2247 567 0
2379 637 0
2491 712 0
2584 789 0
2664 866 0
2732 940 0
2789 1009 0
2837 1071 0
2881 1130 0
2921 1185 0
2956 1235 0
2987 1280 0
3017 1323 0
3045 1364 0
3073 1404 0
3098 1439 0
3124 1477 0
3150 1511 0
3178 1547 0
3206 1581 0
3236 1617 0
3267 1651 0
3300 1686 0
3334 1719 0
3371 1753 0
3409 1784 0
3450 1815 0
3492 1842 0
3535 1868 0
3580 1891 0
3629 1914 0
3680 1936 0
3737 1957 0
3804 1979 0
3886 2000 0
3988 2024 0
4095 2047 0
0 98 501
0 106 507
0 114 510
0 129 511
0 143 505
32 141 472
147 127 449
238 118 438
352 127 426
422 98 407
479 45 387
529 8 383
583 0 378
633 6 369
685 31 362
743 52 357
805 78 349
869 101 341
935 134 330
1032 185 310
1153 254 272
1290 327 224
1436 362 169
1597 382 102
1759 406 22
1923 434 0
2078 475 0
2225 531 0
2358 600 0
2473 676 0
2568 755 0
2651 836 0
2721 913 0
2780 984 0
2830 1049 0
2875 1110 0
2915 1166 0
2951 1221 0
2982 1267 0
3013 1312 0
3042 1355 0
3070 1395 0
3096 1432 0
3123 1471 0
3149 1506 0
3177 1543 0
3204 1579 0
3234 1615 0
3266 1650 0
3298 1684 0
3332 1717 0
3368 1750 0
3405 1781 0
3445 1812 0
3485 1840 0
3529 1866 0
3573 1890 0
3619 1912 0
3670 1934 0
3728 1956 0
3793 1978 0
3877 2001 0
3983 2025 0
4095 2049 0
0 123 527
0 130 532
0 143 536
0 162 537
0 186 535
16 197 519
108 183 476
223 167 461
316 158 449
388 170 437
461 133 413
519 72 391
574 22 377
629 0 374
683 0 365
740 13 360
801 31 353
864 50 345
948 77 334
1055 124 314
1173 184 277
1304 246 231
1447 295 178
1601 328 115
1762 360 39
1923 389 0
2076 428 0
2222 486 0
2356 560 0
2472 641 0
2566 723 0
2649 807 0
2718 886 0
2778 959 0
2827 1026 0
2872 1091 0
2911 1149 0
2948 1203 0
2980 1252 0
3010 1298 0
3039 1343 0
3067 1386 0
3093 1424 0
3120 1462 0
3147 1500 0
3175 1538 0
3203 1573 0
3233 1611 0
3263 1646 0
3296 1682 0
3329 1715 0
3365 1748 0
3401 1779 0
3441 1809 0
3481 1838 0
3523 1865 0
3566 1888 0
3611 1910 0
3662 1932 0
3717 1954 0
3784 1976 0
3866 2001 0
3976 2027 0
4095 2050 0
0 151 552
0 160 558
0 171 562
0 192 564
0 214 564
7 242 559
57 255 530
182 228 487
300 211 478
366 206 463
422 222 449
497 176 424
559 102 395
616 48 378
675 6 370
737 0 363
800 0 357
879 3 348
975 19 335
1079 50 318
1193 88 284
1322 138 241
1460 176 190
1614 199 128
1772 232 55
1931 291 0
2083 366 0
2228 427 0
2360 509 0
2476 595 0
2570 684 0
2650 772 0
2719 854 0
2778 931 0
2827 1000 0
2871 1066 0
2911 1128 0
2946 1183 0
2978 1234 0
3009 1285 0
3038 1329 0
3066 1373 0
3092 1413 0
3120 1455 0
3147 1494 0
3175 1532 0
3202 1568 0
3232 1606 0
3263 1643 0
3295 1678 0
3327 1712 0
3362 1745 0
3398 1776 0
3436 1806 0
3475 1834 0
3516 1861 0
3557 1885 0
3601 1908 0
3651 1930 0
3706 1951 0
3773 1975 0
3857 2000 0
3965 2028 0
4095 2053 0
0 180 579
0 188 585
0 200 589
0 216 591
0 244 593
0 281 592
31 314 582
108 308 536
258 281 505
353 265 492
395 260 476
460 274 462
533 230 436
600 137 405
662 68 382
728 22 365
816 0 356
907 0 348
1000 0 337
1103 0 321
1217 0 291
1344 14 251
1482 35 201
1632 46 142
1787 54 72
1944 91 0
2094 175 0
2236 327 0
2368 434 0
2482 535 0
2574 629 0
2654 723 0
2722 813 0
2779 894 0
2827 967 0
2872 1036 0
2911 1101 0
2948 1162 0
2978 1213 0
3010 1266 0
3039 1314 0
3067 1360 0
3094 1403 0
3121 1445 0
3149 1486 0
3177 1526 0
3204 1565 0
3233 1603 0
3264 1639 0
3295 1675 0
3327 1708 0
3361 1742 0
3396 1774 0
3433 1804 0
3470 1831 0
3511 1858 0
3551 1882 0
3594 1905 0
3642 1928 0
3696 1950 0
3763 1973 0
3848 1999 0
3957 2028 0
4093 2055 0
0 202 607
0 210 613
0 223 617
0 244 620
0 268 623
0 305 623
10 342 622
65 363 604
171 355 549
324 340 525
380 328 510
427 325 494
491 339 478
575 294 450
659 186 418
744 94 390
835 22 368
928 0 346
1023 0 336
1125 0 323
1241 0 296
1368 0 258
1503 0 213
1652 0 156
1805 0 90
1958 0 11
2106 0 0
2247 50 0
2374 281 0
2487 442 0
2579 556 0
2659 664 0
2725 759 0
2783 846 0
2831 926 0
2875 1000 0
2915 1069 0
2950 1132 0
2982 1190 0
3013 1246 0
3043 1298 0
3071 1346 0
3098 1391 0
3124 1434 0
3151 1477 0
3179 1518 0
3207 1557 0
3235 1596 0
3265 1634 0
3296 1671 0
3327 1704 0
3361 1738 0
3394 1769 0
3430 1800 0
3466 1828 0
3506 1855 0
3544 1878 0
3587 1902 0
3635 1926 0
3690 1950 0
3756 1974 0
3841 2000 0
3953 2029 0
4089 2057 0
0 230 638
0 243 645
0 256 649
0 272 652
