dist/LUTS/Anime3.3dl
0 585 1170 1755 2340 2925 3510 4095
0 0 437
517 0 455
1515 0 389
2734 818 0
3179 1291 0
3617 1504 0
4095 1683 0
4095 1867 605
0 173 731
475 148 568
1732 0 436
2750 634 0
3169 1238 0
3593 1525 0
4095 1725 0
4095 1908 701
0 1453 2046
0 1997 2038
1546 1371 918
2826 0 683
3220 730 503
3588 1454 176
4095 1820 467
4095 2054 1124
0 2371 2811
0 2618 2870
609 2580 2279
2083 2275 1449
3107 1214 1073
3639 1035 926
4095 1779 1193
4095 2161 1649
0 2699 3026
0 2820 3071
0 2941 2968
2046 2870 2767
2373 2530 2281
3370 2100 1676
4095 1743 1613
4095 2155 2151
0 3060 3351
0 3113 3352
0 3300 3326
1262 3432 3092
2953 3287 3069
2939 2849 2860
3975 2588 2475
4095 2223 2464
0 3566 3739
0 3593 3726
179 3739 3705
1848 3897 3631
2657 3874 3388
3449 3797 3303
3778 3448 3060
4095 3044 2843
1963 3920 3981
2092 3941 3978
2483 4014 3964
3019 4088 3927
3463 4085 3830
3738 4051 3754
3881 4061 3409
4095 3469 3106
0 103 612
367 14 561
1431 0 401
2664 588 0
3086 1178 0
3489 1463 0
4095 1675 0
4095 1831 145
0 106 799
379 220 755
1576 0 661
2711 0 182
3098 1128 0
3498 1481 0
4095 1716 0
4095 1888 561
0 1150 2077
0 1812 2199
1498 1367 1185
2708 0 887
3165 398 541
3524 1373 321
4095 1795 462
4095 2041 1081
0 2270 2825
0 2539 2879
136 2591 2438
2050 2239 1647
3019 1307 1190
3591 995 934
4095 1743 1174
4095 2160 1658
0 2675 3043
0 2813 3103
0 2961 3019
1941 2891 2770
2338 2515 2393
3312 2144 1770
4095 1808 1702
4095 2158 2168
0 3052 3373
0 3138 3398
0 3333 3374
1285 3463 3144
2933 3303 3078
2930 2856 2882
3950 2605 2511
4095 2255 2519
0 3557 3754
0 3602 3753
669 3748 3730
1894 3901 3654
2669 3881 3407
3444 3806 3320
3775 3460 3071
4095 3068 2863
1945 3905 3983
2111 3928 3979
2492 4002 3966
3016 4084 3932
3468 4086 3840
3742 4050 3760
3880 4061 3421
4095 3474 3117
0 478 1138
0 436 1068
1157 0 936
2503 495 710
3036 958 0
3442 1434 0
4076 1732 0
4095 1911 641
0 535 1353
0 566 1343
1245 397 1128
2475 589 888
3040 887 359
3456 1416 0
4074 1754 0
4095 1956 801
0 616 2164
0 839 2242
984 1716 1765
2390 951 1381
2981 979 1038
3502 1204 585
4062 1781 675
4095 2077 1209
0 1726 2836
0 2101 2889
0 2532 2788
1939 2262 2320
2774 1704 1636
3396 1566 1469
4079 1697 1235
4095 2173 1735
0 2507 3057
0 2658 3118
173 2856 3076
1525 2914 2799
2250 2542 2679
3145 2320 2154
3980 2055 2088
4095 2161 2202
0 2942 3397
0 3034 3436
0 3231 3417
1265 3458 3277
2761 3351 3086
2919 2904 2950
3888 2683 2637
4095 2346 2641
0 3440 3773
0 3496 3777
579 3662 3759
1857 3872 3703
2666 3899 3474
3425 3835 3383
3764 3506 3113
4095 3123 2917
1663 3824 3996
1862 3853 3991
2323 3943 3975
2925 4062 3950
3454 4090 3870
3755 4051 3780
3878 4060 3470
4095 3492 3158
0 1734 2359
0 1702 2274
0 1448 1986
2072 427 1413
2778 1315 1043
3332 1541 701
4020 1756 190
4095 2007 968
0 1723 2443
0 1799 2447
0 1623 2056
2036 850 1519
2741 1424 1174
3313 1595 877
4014 1755 470
4095 2040 1075
0 1449 2661
0 1595 2702
0 1574 2351
1856 1623 1923
2615 1679 1656
3217 1794 1428
4022 1730 886
4095 2126 1393
0 1315 2908
0 1602 2943
0 1970 2838
1460 2477 2604
2382 2111 2199
3069 2094 2143
3922 2002 1751
4095 2195 1841
0 2190 3091
0 2373 3137
598 2577 3090
1407 2885 3020
2276 2711 2844
2919 2505 2566
3830 2295 2514
4095 2179 2263
0 2736 3422
0 2815 3462
349 2973 3446
1271 3320 3403
2206 3429 3111
2942 3032 3040
3802 2797 2771
4095 2480 2768
0 3183 3804
0 3245 3812
0 3429 3797
1662 3744 3764
2629 3929 3631
3394 3876 3482
3740 3580 3186
4095 3207 3018
0 3591 4028
896 3636 4022
1774 3779 4001
2677 3969 3968
3394 4088 3922
3771 4053 3816
3878 4058 3559
4095 3522 3230
0 2437 2908
0 2420 2878
0 2345 2752
1365 1370 2442
2438 1373 1892
2987 1948 1665
3763 2086 1448
4095 2091 1273
0 2371 2893
0 2420 2898
0 2347 2766
1156 1684 2482
2386 1541 1975
2944 2026 1764
3730 2116 1540
4095 2106 1335
0 2230 2932
0 2307 2942
0 2291 2827
1029 2252 2614
2172 2011 2258
2811 2231 2138
3663 2239 1919
4095 2152 1561
0 1912 3011
0 2047 3029
0 2123 2935
1281 2236 2806
1979 2383 2643
2722 2396 2602
3635 2370 2404
4095 2217 1940
0 1986 3163
0 2147 3192
0 2319 3123
1416 2558 3057
1965 2898 2940
2736 2637 2786
3706 2490 2738
4095 2366 2526
0 2499 3457
0 2561 3479
313 2678 3458
1339 2935 3450
2024 3455 3415
3068 3274 3219
3721 2911 2905
4095 2654 2885
0 2821 3834
0 2868 3842
0 3024 3834
1316 3387 3818
2480 3847 3782
3279 3914 3577
3720 3701 3294
4095 3310 3165
0 3100 4084
0 3109 4083
0 3298 4062
1814 3693 4011
3122 4003 3958
3765 4062 3869
3884 4053 3683
4095 3570 3337
0 2745 3127
0 2734 3108
0 2709 3025
0 2634 2925
2142 1905 2788
2619 2113 2525
3392 2320 2362
4095 2437 2307
0 2710 3121
0 2732 3121
0 2706 3032
0 2651 2933
2100 2011 2805
2589 2163 2560
3362 2350 2399
4095 2456 2353
0 2656 3151
0 2692 3160
0 2691 3074
0 2687 2972
1821 2333 2861
2501 2334 2676
3306 2476 2559
4095 2530 2505
0 2520 3223
0 2574 3239
0 2617 3164
563 2672 3062
1769 2683 2939
2417 2562 2801
3309 2620 2742
4095 2627 2664
0 2331 3354
0 2402 3369
0 2504 3315
872 2620 3240
1866 2714 3129
2486 2803 2961
3463 2752 2914
4095 2736 2807
0 2411 3572
0 2471 3585
0 2583 3563
1217 2752 3537
2018 3033 3505
2750 3510 3361
3628 3061 3113
4095 2942 3043
0 2584 3885
0 2630 3892
0 2754 3884
1039 2994 3870
2150 3433 3843
3150 3926 3795
3675 3836 3509
4095 3460 3373
0 2820 4095
0 2826 4095
0 2853 4095
0 2916 4095
1978 3596 4022
3588 4046 3945
3917 4041 3828
4095 3653 3488
0 3195 3509
0 3186 3504
0 3177 3464
0 3170 3374
1407 2954 3265
2614 2314 2992
3299 2449 2866
4095 2601 2828
0 3180 3511
0 3197 3526
0 3186 3479
0 3183 3387
1414 2998 3274
2604 2350 3003
3290 2470 2875
4095 2629 2841
0 3149 3554
0 3171 3573
0 3181 3520
0 3207 3427
1429 3118 3304
2584 2483 3056
3281 2563 2918
4095 2735 2885
0 3051 3631
0 3075 3655
0 3121 3599
0 3199 3510
1402 3218 3379
2522 2707 3177
3274 2726 2999
4095 2934 2966
0 2866 3745
0 2881 3763
0 2949 3718
0 3089 3640
1233 3216 3520
2392 3225 3339
3267 2987 3128
4095 3196 3123
0 2577 3879
0 2588 3892
0 2701 3858
0 2890 3799
1212 3090 3714
2522 3287 3580
3392 3370 3411
4095 3450 3375
0 2401 4022
0 2429 4026
0 2624 3999
0 2847 3967
1727 3165 3919
2903 3567 3862
3700 3952 3783
4095 3704 3639
0 2643 4095
0 2644 4095
0 2647 4095
0 2656 4095
0 2778 4095
2619 3593 4009
3954 4039 3924
4095 3857 3746
0 3811 3895
0 3806 3892
0 3788 3881
0 3787 3844
1052 3772 3783
2509 3136 3714
3774 2634 3401
4095 2954 3299
0 3804 3895
0 3801 3893
0 3779 3879
0 3783 3845
1017 3777 3784
2499 3186 3717
3765 2653 3410
4095 2970 3305
0 3798 3911
0 3795 3909
0 3776 3898
0 3782 3869
944 3810 3801
2511 3428 3744
3759 2749 3466
4095 3059 3348
0 3783 3950
0 3782 3950
0 3768 3941
0 3752 3924
0 3843 3844
2626 3753 3781
3753 2953 3576
4095 3228 3432
0 3728 4010
0 3729 4010
0 3724 4004
0 3708 3993
0 3816 3929
2622 3887 3834
3718 3306 3720
4095 3463 3552
0 3522 4045
0 3523 4045
0 3527 4044
0 3535 4043
0 3538 4043
2221 3886 3939
3535 3902 3848
4095 3732 3705
0 3107 4087
0 3107 4087
0 3107 4087
0 3106 4087
0 3109 4087
0 3481 4042
3526 3950 3947
4071 3978 3876
0 2760 4095
0 2758 4095
0 2753 4095
0 2742 4095
0 2734 4095
0 2935 4095
3632 3902 3962
4023 4031 3939
