dist/LUTS/Anime3.3dl
0 65 130 195 260 325 390 455 520 585 650 715 780 845 910 975 1040 1105 1170 1235 1300 1365 1430 1495 1560 1625 1690 1755 1820 1885 1950 2015 2080 2145 2210 2275 2340 2405 2470 2535 2600 2665 2730 2795 2860 2925 2990 3055 3120 3185 3250 3315 3380 3445 3510 3575 3640 3705 3770 3835 3900 3965 4030 4095
0 0 437
0 0 438
0 0 439
0 0 442
0 0 446
66 0 452
174 0 456
319 5 459
421 1 461
517 0 455
616 0 445
717 0 433
815 0 424
919 0 420
1027 0 417
1140 0 412
1262 0 406
1388 0 398
1515 0 389
1696 0 371
1902 0 329
2087 0 233
2246 0 108
2382 0 0
2495 321 0
2589 560 0
2665 702 0
2734 818 0
2795 914 0
2851 995 0
2900 1062 0
2948 1124 0
2993 1177 0
3038 1227 0
3081 1266 0
3130 1280 0
3179 1291 0
3227 1307 0
3270 1331 0
3316 1358 0
3361 1382 0
3410 1408 0
3454 1431 0
3507 1456 0
3560 1480 0
3617 1504 0
3675 1526 0
3740 1550 0
3806 1572 0
3877 1594 0
3947 1613 0
4021 1633 0
4093 1650 0
4095 1668 0
4095 1683 0
4095 1697 0
4095 1710 0
4095 1722 0
4095 1734 0
4095 1748 0
4095 1765 0
4095 1788 0
4095 1821 0
4095 1867 605
0 1 438
0 2 439
0 0 439
0 0 443
0 0 446
66 0 452
174 0 456
324 4 459
421 1 461
516 0 455
609 0 447
707 0 434
806 0 424
905 0 421
1011 0 417
1121 0 413
1238 0 407
1363 0 400
1487 0 391
1665 0 374
1866 0 339
2048 0 256
2205 0 141
2346 0 0
2463 135 0
2559 505 0
2639 659 0
2711 784 0
2775 885 0
2831 970 0
2883 1041 0
2932 1105 0
2979 1161 0
3024 1213 0
3067 1258 0
3116 1275 0
3166 1286 0
3215 1299 0
3259 1325 0
3305 1353 0
3352 1378 0
3399 1403 0
3448 1428 0
3499 1453 0
3552 1477 0
3610 1501 0
3669 1524 0
3734 1548 0
3801 1570 0
3870 1591 0
3939 1611 0
4010 1630 0
4081 1647 0
4095 1665 0
4095 1680 0
4095 1694 0
4095 1707 0
4095 1718 0
4095 1730 0
4095 1744 0
4095 1761 0
4095 1784 0
4095 1818 0
4095 1865 591
0 6 445
0 5 442
0 4 442
0 0 443
0 0 448
53 4 453
161 5 459
304 11 463
414 7 463
507 0 459
601 0 451
697 0 438
793 0 424
891 0 421
991 0 417
1101 0 413
1217 0 408
1338 0 401
1461 0 392
1642 0 376
1840 0 344
2020 0 269
2178 0 160
2319 0 24
2440 49 0
2539 474 0
2623 639 0
2697 767 0
2762 871 0
2820 958 0
2871 1030 0
2922 1096 0
2970 1154 0
3016 1206 0
3058 1249 0
3107 1267 0
3156 1279 0
3205 1292 0
3248 1319 0
3295 1346 0
3342 1373 0
3390 1399 0
3438 1424 0
3490 1449 0
3544 1474 0
3603 1500 0
3660 1522 0
3726 1546 0
3792 1568 0
3861 1589 0
3930 1609 0
4001 1628 0
4071 1645 0
4095 1663 0
4095 1678 0
4095 1692 0
4095 1704 0
4095 1715 0
4095 1727 0
4095 1740 0
4095 1757 0
4095 1780 0
4095 1815 0
4095 1863 578
0 9 459
0 13 459
0 12 451
0 8 447
0 0 448
46 0 456
150 6 461
300 11 467
407 14 468
497 6 465
590 0 457
683 0 446
778 0 433
876 0 421
975 0 418
1081 0 414
1194 0 408
1315 0 402
1438 0 393
1630 0 376
1822 0 346
1998 0 277
2155 0 171
2297 0 40
2421 10 0
2524 460 0
2609 626 0
2685 757 0
2751 864 0
2810 952 0
2862 1025 0
2913 1090 0
2960 1148 0
3006 1199 0
3051 1233 0
3100 1253 0
3149 1266 0
3196 1286 0
3240 1314 0
3285 1341 0
3333 1369 0
3381 1396 0
3430 1421 0
3483 1448 0
3538 1473 0
3596 1498 0
3656 1522 0
3720 1546 0
3786 1568 0
3854 1589 0
3923 1609 0
3994 1628 0
4062 1645 0
4095 1662 0
4095 1676 0
4095 1691 0
4095 1702 0
4095 1713 0
4095 1725 0
4095 1738 0
4095 1755 0
4095 1778 0
4095 1813 0
4095 1862 565
0 20 479
0 20 481
0 28 477
0 25 462
0 20 458
35 1 458
145 0 464
286 3 471
401 11 473
491 8 471
580 0 465
672 0 456
766 0 444
862 0 430
960 0 418
1064 0 414
1174 0 409
1294 0 402
1430 0 393
1626 0 375
1812 0 345
1985 0 278
2139 0 175
2282 0 47
2405 7 0
2510 455 0
2598 623 0
2673 752 0
2741 857 0
2800 945 0
2853 1018 0
2904 1084 0
2951 1142 0
2999 1187 0
3046 1211 0
3094 1229 0
3143 1246 0
3188 1277 0
3232 1307 0
3279 1336 0
3327 1365 0
3376 1394 0
3424 1421 0
3477 1448 0
3534 1475 0
3592 1500 0
3653 1525 0
3717 1548 0
3781 1570 0
3850 1592 0
3917 1610 0
3986 1629 0
4056 1646 0
4095 1662 0
4095 1677 0
4095 1691 0
4095 1703 0
4095 1713 0
4095 1725 0
4095 1738 0
4095 1755 0
4095 1778 0
4095 1813 0
4095 1863 557
0 31 503
0 35 505
0 37 506
0 40 488
0 37 476
12 29 471
130 12 470
280 0 472
396 0 478
483 0 478
573 0 475
665 0 466
755 0 456
851 0 441
947 0 427
1050 0 414
1159 0 409
1275 0 403
1440 0 392
1627 0 374
1807 0 344
1976 0 278
2129 0 177
2269 0 53
2392 5 0
2497 448 0
2585 616 0
2662 745 0
2729 851 0
2790 940 0
2843 1012 0
2894 1078 0
2945 1120 0
2995 1154 0
3042 1178 0
3091 1201 0
3136 1237 0
3182 1270 0
3226 1301 0
3274 1333 0
3323 1364 0
3372 1393 0
3422 1420 0
3475 1449 0
3530 1476 0
3589 1502 0
3649 1528 0
3711 1551 0
3777 1574 0
3844 1594 0
3909 1613 0
3977 1631 0
4044 1648 0
4095 1664 0
4095 1678 0
4095 1692 0
4095 1705 0
4095 1716 0
4095 1727 0
4095 1740 0
4095 1757 0
4095 1781 0
4095 1817 0
4095 1866 564
0 49 540
0 53 542
0 60 544
0 67 539
0 60 503
13 54 492
112 48 488
266 27 483
393 0 481
478 0 484
565 0 483
655 0 476
748 0 467
842 0 455
939 0 441
1040 0 427
1149 0 412
1283 0 403
1459 0 390
1638 0 373
1811 0 342
1973 0 278
2122 0 181
2260 0 59
2382 0 0
2486 432 0
2573 600 0
2650 731 0
2718 837 0
2780 917 0
2835 978 0
2889 1031 0
2941 1074 0
2990 1109 0
3037 1147 0
3083 1189 0
3129 1227 0
3176 1263 0
3221 1297 0
3268 1328 0
3317 1361 0
3367 1392 0
3418 1421 0
3472 1450 0
3526 1477 0
3584 1504 0
3642 1529 0
3704 1553 0
3767 1576 0
3833 1597 0
3896 1615 0
3962 1633 0
4030 1650 0
4095 1666 0
4095 1680 0
4095 1694 0
4095 1706 0
4095 1718 0
4095 1731 0
4095 1745 0
4095 1763 0
4095 1787 0
4095 1824 0
4095 1874 596
0 82 586
0 81 591
0 88 593
0 93 591
0 100 570
11 91 528
101 78 516
225 74 508
388 39 498
474 0 490
563 0 486
649 0 485
742 0 480
835 0 468
930 0 456
1031 0 442
1148 0 427
1309 0 410
1478 0 393
1647 0 375
1813 0 350
1969 0 294
2112 0 208
2246 0 97
2365 0 0
2470 225 0
2557 499 0
2635 638 0
2705 747 0
2767 831 0
2824 903 0
2877 958 0
2926 1017 0
2973 1070 0
3018 1117 0
3064 1162 0
3109 1203 0
3155 1243 0
3199 1279 0
3247 1315 0
3295 1349 0
3345 1381 0
3394 1410 0
3446 1440 0
3498 1467 0
3553 1494 0
3607 1518 0
3665 1542 0
3725 1565 0
3787 1587 0
3847 1606 0
3910 1624 0
3972 1640 0
4037 1655 0
4095 1668 0
4095 1682 0
4095 1695 0
4095 1708 0
4095 1721 0
4095 1733 0
4095 1748 0
4095 1763 0
4095 1778 0
4095 1797 0
0 137 679
0 137 679
0 143 679
0 152 677
0 162 664
0 160 608
142 138 569
274 122 551
396 113 543
508 62 525
608 0 506
714 0 487
815 0 486
918 0 479
1027 0 466
1160 0 449
1342 0 433
1530 0 419
1713 0 401
1890 0 378
2052 0 335
2202 0 244
2331 0 130
2446 0 0
2544 53 0
2626 461 0
2697 614 0
2761 728 0
2818 824 0
2869 902 0
2916 969 0
2963 1029 0
3008 1083 0
3051 1131 0
3092 1174 0
3135 1217 0
3178 1255 0
3222 1291 0
3263 1323 0
3306 1355 0
3351 1386 0
3397 1415 0
3443 1443 0
3492 1471 0
3544 1497 0
3599 1523 0
3658 1548 0
3721 1572 0
3788 1597 0
3857 1620 0
3927 1642 0
4000 1663 0
4072 1683 0
4095 1701 0
4095 1717 0
4095 1731 0
4095 1746 0
4095 1759 0
4095 1773 0
4095 1788 0
4095 1804 0
4095 1825 0
4095 1855 381
4095 1895 665
0 173 731
0 181 742
0 192 749
0 206 752
0 222 745
0 232 711
81 213 629
296 184 602
389 160 579
475 148 568
591 79 547
694 0 520
801 0 500
910 0 483
1055 0 479
1215 0 469
1387 0 458
1563 0 448
1732 0 436
1897 0 419
2051 0 397
2194 0 368
2320 0 306
2434 0 190
2530 0 57
2614 119 0
2686 484 0
2750 634 0
2809 748 0
2860 842 0
2907 918 0
2954 987 0
2999 1047 0
3043 1104 0
3084 1151 0
3127 1197 0
3169 1238 0
3213 1278 0
3253 1313 0
3297 1348 0
3342 1380 0
3389 1411 0
3434 1439 0
3485 1469 0
3537 1497 0
3593 1525 0
3651 1552 0
3715 1579 0
3782 1603 0
3852 1627 0
3919 1648 0
3991 1669 0
4062 1689 0
4095 1708 0
4095 1725 0
4095 1740 0
4095 1754 0
4095 1767 0
4095 1781 0
4095 1795 0
4095 1813 0
4095 1835 0
4095 1866 430
4095 1908 701
0 222 796
0 234 809
0 245 817
0 262 819
0 284 817
0 301 796
0 293 724
225 261 654
393 228 631
456 196 603
546 179 591
681 101 570
809 0 540
946 0 516
1093 0 488
1254 0 476
1421 0 475
1588 0 471
1750 0 464
1908 0 453
2057 0 436
2197 0 415
2321 0 388
2434 0 346
2530 0 245
2615 0 119
2687 179 0
2751 509 0
2809 661 0
2862 773 0
2907 863 0
2953 941 0
2997 1009 0
3040 1072 0
3080 1124 0
3122 1173 0
3164 1219 0
3206 1263 0
3247 1300 0
3291 1337 0
3335 1372 0
3380 1405 0
3426 1437 0
3477 1468 0
3530 1497 0
3587 1527 0
3645 1554 0
3708 1582 0
3774 1608 0
3843 1633 0
3910 1655 0
3980 1676 0
4051 1696 0
4095 1715 0
4095 1732 0
4095 1749 0
4095 1763 0
4095 1776 0
4095 1790 0
4095 1804 0
4095 1822 0
4095 1846 0
4095 1878 480
4095 1921 738
0 279 864
0 297 879
0 312 887
0 326 891
0 344 888
0 359 876
0 364 832
99 350 732
382 329 690
482 301 671
552 273 641
663 255 630
816 142 606
957 0 567
1105 0 540
1269 0 514
1441 0 486
1606 0 481
1765 0 482
1919 0 476
2065 0 468
2202 0 453
2325 0 435
2439 0 409
2537 0 374
2621 0 315
2693 0 193
2757 215 67
2815 533 0
2866 679 0
2911 789 0
2956 881 0
2998 960 0
3040 1030 0
3079 1088 0
3119 1143 0
3160 1195 0
3202 1241 0
3243 1283 0
3285 1323 0
3329 1362 0
3375 1397 0
3422 1431 0
3472 1464 0
3526 1497 0
3581 1528 0
3641 1558 0
3704 1586 0
3768 1613 0
3837 1638 0
3902 1661 0
3973 1685 0
4041 1705 0
4095 1724 0
4095 1741 0
4095 1757 0
4095 1772 0
4095 1787 0
4095 1800 0
4095 1815 0
4095 1832 0
4095 1857 82
4095 1891 530
4095 1935 774
0 354 950
0 366 969
0 375 981
0 386 989
0 402 991
0 423 986
0 440 962
0 444 884
317 428 781
501 409 748
587 388 720
660 366 682
774 361 667
942 243 640
1100 0 597
1262 0 568
1433 0 550
1606 0 529
1771 0 502
1930 0 488
2075 0 488
2211 0 482
2334 0 470
2448 0 454
2544 0 432
2630 0 401
2701 0 363
2765 0 282
2822 222 161
2873 539 40
2917 684 0
2960 800 0
3001 894 0
3041 974 0
3079 1043 0
3119 1105 0
3159 1163 0
3199 1214 0
3239 1260 0
3282 1306 0
3327 1348 0
3372 1386 0
3419 1424 0
3471 1461 0
3524 1496 0
3579 1528 0
3638 1559 0
3701 1590 0
3766 1619 0
3832 1645 0
3897 1668 0
3966 1691 0
4035 1714 0
4095 1734 0
4095 1751 0
4095 1767 0
4095 1782 0
4095 1796 0
4095 1811 0
4095 1827 0
4095 1845 0
4095 1869 294
4095 1904 584
4095 1950 815
0 421 1070
0 437 1096
0 452 1114
0 468 1121
0 489 1123
0 514 1118
0 537 1099
0 554 1042
12 544 920
435 522 833
603 496 807
686 467 768
760 438 724
879 434 702
1062 380 674
1243 0 630
1416 0 602
1590 0 585
1761 0 569
1925 0 546
2078 0 515
2220 0 496
2342 0 494
2456 0 486
2553 0 472
2638 0 454
2710 0 429
2773 0 398
2829 0 360
2880 158 270
2924 528 157
2966 685 36
3006 804 0
3045 901 0
3082 983 0
3121 1055 0
3160 1122 0
3200 1179 0
3240 1232 0
3283 1283 0
3328 1329 0
3373 1373 0
3420 1415 0
3471 1453 0
3523 1490 0
3581 1527 0
3638 1560 0
3699 1592 0
3763 1621 0
3827 1649 0
3892 1675 0
3958 1699 0
4023 1720 0
4090 1741 0
4095 1759 0
4095 1777 0
4095 1793 0
4095 1806 0
4095 1822 0
4095 1839 0
4095 1859 0
4095 1885 421
4095 1920 645
4095 1967 867
0 501 1194
0 526 1228
0 550 1250
0 572 1259
