dist/LUTS/Anime8.3dl
0 1365 2730 4095
0 0 402
2611 750 0
3604 1919 0
4095 1918 0
0 2230 1398
2680 1668 0
3628 1807 0
4095 2021 0
905 3187 2484
2216 3179 2242
3683 2574 0
4095 2140 1035
2108 4095 3872
2684 4095 3682
3484 4058 3062
4095 2721 1954
0 903 1187
2222 0 625
3441 1852 0
4095 1978 0
0 1048 1927
2201 1974 1138
3618 1313 0
4095 2026 0
1137 3129 2732
1800 3277 2381
3489 2752 1185
4095 2167 1145
1703 4015 3970
2500 4095 3863
3521 4056 3288
4095 2731 1953
0 2879 2565
0 2728 2389
3255 1676 1019
4095 2025 0
0 2802 2549
895 2808 2425
3055 2360 1442
4095 1988 0
1044 2668 2893
1753 2813 2862
3011 3092 2381
4095 2228 1216
0 3156 4058
0 3256 4070
3481 4068 3813
4095 2822 1950
0 3807 3841
0 3782 3799
2541 2931 3582
4095 2676 2320
0 3815 3861
0 3793 3834
2256 3211 3615
4095 2788 2403
0 3807 4031
0 3800 4024
1816 3924 3877
4095 3362 2925
0 3278 4095
0 3261 4095
0 3234 4095
3972 4026 3988
