dist/LUTS/Anime1.3dl
0 585 1170 1755 2340 2925 3510 4095
0 0 250
422 0 299
925 0 364
1746 0 454
2675 0 554
3337 0 694
3816 0 941
4095 618 1360
329 14 339
472 0 319
953 0 419
1719 0 510
2649 0 602
3324 0 739
3807 0 985
4095 591 1385
656 44 510
769 51 540
1064 0 470
1772 0 592
2669 0 754
3320 0 916
3797 0 1176
4095 706 1527
1015 254 706
1131 410 763
1404 551 764
1885 353 610
2722 0 756
3348 0 1119
3800 0 1462
4095 928 1747
1404 753 970
1492 885 1029
1725 1167 1084
2162 1387 991
2750 1280 709
3372 613 1025
3806 896 1574
4095 1280 1928
1867 1620 1410
1914 1693 1440
2127 1926 1528
2512 2135 1589
2889 2154 1357
3371 2029 1108
3815 1790 1506
4095 1755 1919
2603 2454 2021
2624 2459 2016
2763 2517 2049
2998 2595 2077
3245 2624 1990
3557 2619 1772
3925 2494 1644
4095 2298 1910
3401 3043 2325
3422 3052 2325
3491 3070 2307
3614 3092 2257
3780 3093 2139
3997 3078 1936
4095 3001 1669
4095 2790 1735
0 131 518
148 85 524
777 0 469
1524 0 559
2437 0 628
3196 0 746
3722 0 997
4095 966 1397
266 127 489
435 108 512
809 0 526
1528 0 600
2439 0 671
3198 0 795
3720 0 1049
4095 1002 1444
635 39 515
717 27 551
1004 84 664
1606 0 731
2486 0 833
3209 0 984
3717 0 1249
4095 1088 1600
983 97 698
1080 218 759
1296 537 873
1774 595 766
2582 0 901
3257 0 1243
3725 477 1556
4095 1236 1829
1378 642 980
1465 773 1055
1643 1083 1173
2098 1472 1190
2645 1404 899
3289 959 1190
3738 1187 1704
4095 1488 2016
1839 1531 1450
1897 1641 1510
2075 1899 1625
2458 2155 1723
2834 2193 1549
3306 2100 1309
3758 1893 1652
4095 1871 2019
2568 2442 2065
2610 2465 2082
2747 2528 2115
2977 2608 2142
3222 2642 2075
3524 2644 1895
3889 2533 1772
4095 2354 2003
3385 3049 2363
3414 3067 2371
3481 3084 2352
3601 3104 2305
3765 3108 2197
3979 3095 2018
4095 3025 1790
4095 2824 1839
0 820 1531
0 846 1492
0 692 1561
1738 0 1062
2046 0 904
2904 839 1055
3448 1490 1300
3927 1845 1730
0 917 1464
0 966 1479
0 879 1543
1748 0 1195
2051 0 948
2897 942 1098
3444 1510 1346
3929 1853 1765
0 933 1233
0 1017 1317
614 993 1352
1314 515 1377
2086 522 1125
2865 1218 1250
3436 1561 1526
3932 1858 1881
887 625 920
960 711 992
1149 751 1051
1520 890 1206
2179 1117 1433
2908 1321 1590
3456 1638 1838
3952 1871 2061
1282 499 923
1360 573 983
1504 692 1090
1798 1123 1397
2314 1785 1642
2976 1674 1762
3509 1830 2079
3995 1948 2230
1774 1112 1377
1830 1216 1447
1943 1464 1598
2171 1935 1870
2640 2293 2036
3071 2311 1902
3573 2185 2056
4049 2149 2261
2385 2273 2086
2426 2310 2114
2553 2416 2180
2816 2575 2266
3123 2683 2291
3413 2716 2206
3766 2658 2106
4095 2509 2240
3278 3021 2461
3310 3043 2471
3386 3074 2465
3524 3118 2444
3700 3147 2380
3910 3149 2256
4095 3106 2107
4095 2941 2125
0 2184 2683
0 2208 2668
0 2258 2614
0 1815 2563
2494 0 2391
2888 0 1579
3203 1610 1853
3677 2284 2096
0 2254 2643
0 2298 2652
0 2287 2587
0 1962 2541
2351 0 2395
2887 0 1631
3190 1665 1879
3677 2301 2110
0 2344 2502
0 2394 2523
0 2333 2479
0 2199 2456
1792 1159 2364
2862 753 1814
3156 1872 1980
3673 2348 2148
0 2246 2231
0 2319 2286
0 2288 2282
0 2256 2298
1664 2174 2332
2768 1568 2047
3126 2145 2106
3702 2366 2230
0 1918 1861
0 2011 1936
626 2035 1974
1377 2084 2044
1999 2169 2152
2645 2178 2255
3175 2290 2269
3798 2348 2393
1542 1416 1494
1599 1482 1547
1736 1518 1598
1982 1643 1735
2326 1970 2025
2822 2480 2366
3335 2446 2378
3906 2439 2515
2216 1848 1919
2255 1909 1963
2346 2052 2062
2537 2296 2229
2861 2598 2422
3269 2803 2506
3592 2808 2420
4035 2709 2506
3034 2858 2529
3068 2886 2546
3161 2958 2574
3345 3081 2612
3578 3194 2627
3800 3233 2560
4030 3221 2448
4095 3114 2442
0 2730 3157
0 2734 3140
0 2747 3083
0 2732 3007
0 2484 2943
2594 1591 2848
3492 1373 2432
3556 2102 2337
0 2744 3108
0 2772 3122
0 2770 3059
0 2745 2988
0 2539 2933
2522 1700 2838
3475 1446 2439
3551 2131 2347
0 2812 3005
0 2840 3024
0 2825 2968
0 2783 2918
479 2679 2892
2313 2061 2811
3420 1711 2476
3541 2244 2388
0 2838 2837
0 2866 2858
0 2841 2819
0 2802 2806
1504 2758 2814
2265 2511 2800
3332 2012 2498
3559 2431 2457
0 2774 2629
0 2798 2653
0 2780 2651
1071 2764 2663
1973 2762 2700
2504 2736 2749
3206 2307 2499
3590 2636 2509
0 2626 2426
548 2643 2445
1162 2630 2446
1755 2617 2459
2284 2629 2503
2714 2685 2588
3122 2649 2608
3717 2717 2685
1799 2174 2041
1863 2185 2058
2027 2162 2068
2299 2175 2129
2610 2307 2281
2960 2596 2527
3403 2941 2735
3884 2935 2794
2764 2480 2400
2791 2508 2420
2871 2593 2478
3039 2773 2599
3315 3065 2780
3641 3312 2903
3881 3357 2841
4095 3339 2821
0 3023 3548
0 3028 3539
0 3045 3510
0 3078 3469
0 3070 3424
1485 2867 3369
2799 2324 3258
3891 2196 2991
0 3038 3523
0 3052 3529
0 3063 3497
0 3092 3459
0 3080 3415
1534 2891 3364
2773 2353 3250
3885 2215 2991
0 3099 3466
0 3114 3476
0 3119 3449
0 3138 3413
0 3113 3382
1726 2978 3347
2717 2480 3239
3864 2283 2988
0 3162 3364
0 3178 3378
0 3178 3356
0 3186 3325
601 3155 3322
2007 3082 3313
2717 2677 3236
3829 2378 2934
0 3187 3210
0 3201 3225
0 3200 3211
0 3198 3207
1529 3185 3236
2304 3148 3257
2825 2907 3235
3750 2517 2833
0 3146 3006
0 3158 3019
0 3154 3012
1386 3156 3038
2080 3163 3080
2603 3166 3131
3041 3121 3177
3617 2823 2831
1302 3027 2784
1349 3035 2791
1584 3025 2788
2016 3012 2794
2458 2984 2795
2880 2973 2823
3255 3055 2946
3693 3172 3117
2466 2610 2430
2490 2605 2431
2542 2556 2406
2724 2516 2420
3000 2619 2554
3348 2997 2873
3716 3473 3265
3990 3566 3288
0 3273 3888
0 3278 3886
0 3296 3877
0 3327 3859
0 3361 3828
0 3328 3788
2231 3128 3740
3143 2771 3693
0 3287 3881
0 3297 3885
0 3313 3874
0 3339 3856
0 3369 3824
0 3335 3783
2245 3143 3738
3145 2790 3694
0 3342 3862
0 3352 3868
0 3361 3858
0 3378 3840
0 3400 3808
926 3363 3772
2313 3204 3734
3152 2854 3691
0 3408 3826
0 3418 3834
0 3423 3826
0 3433 3811
0 3446 3781
1382 3408 3753
2436 3301 3728
3189 2959 3688
0 3475 3768
0 3484 3778
0 3487 3774
0 3492 3765
0 3497 3739
1734 3465 3726
2613 3410 3717
3275 3098 3690
0 3525 3665
0 3534 3676
0 3536 3673
0 3538 3665
0 3538 3647
2062 3522 3668
2851 3504 3689
3423 3261 3693
1296 3529 3498
1327 3537 3508
1352 3535 3499
1403 3530 3481
1762 3521 3468
2513 3527 3512
3144 3564 3598
3601 3468 3650
2146 3477 3279
2158 3479 3280
2185 3466 3260
2241 3435 3213
2339 3366 3118
2907 3292 3087
3531 3296 3206
3864 3749 3722
0 3436 4095
0 3439 4095
0 3450 4095
0 3473 4095
0 3509 4085
0 3553 4068
1992 3534 4030
3031 3418 3981
0 3444 4095
0 3447 4095
0 3457 4095
0 3480 4094
0 3514 4084
0 3557 4067
2004 3539 4029
3036 3425 3980
0 3479 4095
0 3482 4095
0 3490 4095
0 3509 4090
0 3539 4080
0 3575 4064
2069 3562 4026
3070 3457 3980
0 3537 4091
0 3538 4091
0 3543 4089
0 3556 4085
0 3576 4077
0 3605 4061
2174 3603 4023
3139 3516 3981
0 3602 4078
0 3603 4078
0 3605 4078
0 3611 4076
0 3623 4071
0 3647 4057
2312 3657 4020
3251 3600 3984
404 3682 4048
422 3682 4049
441 3683 4050
500 3685 4053
609 3690 4056
835 3704 4049
2461 3723 4016
3410 3702 3988
1571 3781 3974
1573 3781 3974
1581 3783 3976
1595 3786 3979
1614 3791 3986
1632 3796 3995
2509 3804 3991
3653 3847 3999
2287 3803 3748
2291 3803 3747
2306 3802 3741
2340 3799 3729
2399 3792 3706
2505 3774 3661
3296 3801 3742
4028 4037 4062
