dist/LUTS/Anime4.3dl
0 65 130 195 260 325 390 455 520 585 650 715 780 845 910 975 1040 1105 1170 1235 1300 1365 1430 1495 1560 1625 1690 1755 1820 1885 1950 2015 2080 2145 2210 2275 2340 2405 2470 2535 2600 2665 2730 2795 2860 2925 2990 3055 3120 3185 3250 3315 3380 3445 3510 3575 3640 3705 3770 3835 3900 3965 4030 4095
0 0 420
0 0 420
0 0 421
0 0 419
0 0 420
81 0 420
189 0 419
323 0 417
415 0 415
500 0 414
589 0 412
685 0 409
783 0 406
885 0 403
995 0 399
1115 0 394
1250 0 388
1399 0 381
1628 0 366
1933 0 329
2234 0 247
2505 0 143
2733 0 23
2922 0 0
3071 0 0
3188 0 0
3273 0 0
3344 0 0
3400 0 0
3446 0 0
3484 415 0
3518 614 0
3547 752 0
3575 861 0
3598 948 0
3621 1030 0
3643 1102 0
3664 1169 0
3683 1227 0
3702 1283 0
3722 1337 0
3742 1387 0
3761 1433 0
3782 1479 0
3804 1524 0
3826 1568 0
3850 1610 0
3878 1654 0
3908 1694 0
3940 1734 0
3973 1771 0
4009 1806 0
4048 1840 0
4088 1870 0
4095 1897 0
4095 1923 0
4095 1945 0
4095 1966 0
4095 1985 0
4095 2003 0
4095 2020 0
4095 2036 0
4095 1990 0
4095 1984 0
0 1 421
0 2 420
0 0 421
0 0 421
0 0 420
81 0 420
189 0 419
327 0 418
413 0 415
500 0 414
585 0 412
676 0 409
772 0 407
872 0 403
980 0 400
1095 0 395
1223 0 390
1368 0 382
1586 0 369
1878 0 337
2169 0 268
2436 0 173
2667 0 63
2867 0 0
3025 0 0
3150 0 0
3243 0 0
3319 0 0
3381 0 0
3430 0 0
3471 230 0
3507 556 0
3538 711 0
3566 828 0
3590 921 0
3615 1008 0
3637 1083 0
3659 1152 0
3678 1211 0
3698 1270 0
3718 1325 0
3738 1377 0
3758 1424 0
3778 1472 0
3800 1518 0
3824 1563 0
3848 1607 0
3876 1650 0
3905 1691 0
3937 1731 0
3970 1768 0
4005 1803 0
4043 1835 0
4083 1867 0
4095 1893 0
4095 1919 0
4095 1942 0
4095 1962 0
4095 1982 0
4095 2000 0
4095 2018 0
4095 2035 0
4095 1991 0
4095 1984 0
0 2 426
0 1 423
0 0 421
0 0 422
0 0 422
79 0 421
178 0 422
314 0 420
411 0 416
491 0 414
577 0 412
667 0 410
760 0 407
858 0 404
961 0 400
1074 0 396
1200 0 391
1338 0 384
1554 0 371
1834 0 344
2116 0 285
2385 0 194
2622 0 87
2826 0 0
2992 0 0
3123 0 0
3224 0 0
3305 0 0
3369 0 0
3421 0 0
3463 15 0
3500 510 0
3533 679 0
3561 802 0
3586 898 0
3610 987 0
3633 1065 0
3653 1134 0
3673 1197 0
3694 1257 0
3714 1313 0
3734 1365 0
3754 1415 0
3775 1464 0
3797 1510 0
3821 1557 0
3846 1601 0
3873 1645 0
3902 1687 0
3933 1727 0
3965 1763 0
4001 1798 0
4038 1831 0
4077 1862 0
4095 1889 0
4095 1914 0
4095 1938 0
4095 1959 0
4095 1978 0
4095 1996 0
4095 2015 0
4095 2033 0
4095 1997 0
4095 1984 0
0 2 431
0 6 431
0 4 427
0 0 425
0 0 425
63 0 425
173 0 423
316 0 422
405 0 419
485 0 414
570 0 412
657 0 410
747 0 407
843 0 405
945 0 401
1055 0 397
1177 0 392
1314 0 386
1530 0 373
1797 0 349
2073 0 298
2341 0 212
2578 0 112
2788 0 0
2963 0 0
3102 0 0
3207 0 0
3292 0 0
3359 0 0
3413 0 0
3457 0 0
3494 457 0
3527 645 0
3556 772 0
3581 875 0
3605 965 0
3628 1045 0
3650 1117 0
3670 1180 0
3690 1241 0
3710 1301 0
3731 1355 0
3751 1405 0
3773 1456 0
3796 1505 0
3819 1551 0
3843 1596 0
3870 1640 0
3899 1682 0
3930 1722 0
3962 1759 0
3996 1793 0
4033 1827 0
4071 1857 0
4095 1883 0
4095 1909 0
4095 1933 0
4095 1954 0
4095 1974 0
4095 1993 0
4095 2012 0
4095 2031 0
4095 2002 0
4095 1984 0
0 10 440
0 10 442
0 12 436
0 9 430
0 1 429
52 0 429
160 0 428
304 0 426
402 0 422
483 0 417
564 0 412
648 0 410
738 0 408
831 0 405
931 0 402
1039 0 398
1158 0 393
1291 0 387
1512 0 374
1774 0 353
2042 0 308
2307 0 227
2543 0 132
2761 0 14
2938 0 0
3082 0 0
3192 0 0
3279 0 0
3349 0 0
3405 0 0
3449 0 0
3489 374 0
3522 595 0
3551 738 0
3577 847 0
3602 940 0
3625 1023 0
3646 1098 0
3667 1164 0
3688 1229 0
3708 1288 0
3729 1345 0
3749 1397 0
3771 1450 0
3794 1498 0
3818 1546 0
3843 1592 0
3869 1635 0
3897 1677 0
3929 1718 0
3960 1754 0
3993 1789 0
4029 1822 0
4066 1852 0
4095 1879 0
4095 1904 0
4095 1928 0
4095 1949 0
4095 1970 0
4095 1989 0
4095 2009 0
4095 2028 0
4095 2005 0
4095 1983 0
0 13 452
0 17 455
0 20 456
0 21 441
0 21 437
50 2 433
140 0 433
287 0 433
396 0 429
477 0 423
559 0 416
645 0 411
730 0 408
823 0 405
919 0 402
1024 0 398
1141 0 394
1275 0 388
1502 0 375
1753 0 357
2015 0 318
2277 0 240
2517 0 148
2731 0 39
2914 0 0
3062 0 0
3176 0 0
3267 0 0
3339 0 0
3397 0 0
3443 0 0
3482 134 0
3516 532 0
3546 694 0
3573 810 0
3598 911 0
3622 999 0
3644 1079 0
3665 1146 0
3686 1214 0
3707 1276 0
3728 1335 0
3749 1389 0
3771 1442 0
3793 1492 0
3817 1540 0
3841 1586 0
3868 1630 0
3896 1673 0
3926 1713 0
3957 1749 0
3989 1783 0
4024 1816 0
4061 1847 0
4095 1874 0
4095 1900 0
4095 1923 0
4095 1944 0
4095 1966 0
4095 1986 0
4095 2006 0
4095 2026 0
4095 2003 0
4095 1982 0
0 17 470
0 20 472
0 27 474
0 34 464
0 29 448
41 25 444
146 9 439
281 0 437
385 0 439
467 0 434
551 0 425
639 0 414
726 0 409
816 0 406
910 0 403
1015 0 399
1129 0 395
1281 0 388
1500 0 376
1741 0 360
1999 0 323
2255 0 253
2492 0 165
2708 0 61
2891 0 0
3041 0 0
3158 0 0
3252 0 0
3326 0 0
3386 0 0
3434 0 0
3474 0 0
3509 437 0
3541 632 0
3568 764 0
3594 874 0
3618 969 0
3641 1052 0
3662 1126 0
3684 1195 0
3705 1261 0
3727 1323 0
3748 1377 0
3770 1433 0
3792 1482 0
3816 1531 0
3839 1576 0
3866 1622 0
3893 1664 0
3922 1704 0
3952 1740 0
3984 1775 0
4018 1808 0
4053 1838 0
4087 1865 0
4095 1892 0
4095 1916 0
4095 1938 0
4095 1961 0
4095 1983 0
4095 2004 0
4095 2025 0
4095 1995 0
4095 1980 0
0 27 490
0 32 492
0 39 496
0 49 495
0 46 468
31 42 459
144 39 454
281 11 447
383 0 443
457 0 442
541 0 437
627 0 425
717 0 412
809 0 407
902 0 404
1004 0 400
1117 0 396
1283 0 389
1490 0 378
1722 0 363
1969 0 331
2219 0 270
2449 0 192
2666 0 94
2850 0 0
3003 0 0
3126 0 0
3224 0 0
3303 0 0
3366 0 0
3416 0 0
3459 0 0
3496 61 0
3529 515 0
3556 677 0
3583 805 0
3608 910 0
3632 1002 0
3654 1081 0
3676 1155 0
3697 1222 0
3718 1287 0
3739 1344 0
3760 1399 0
3782 1451 0
3804 1500 0
3826 1546 0
3850 1591 0
3876 1634 0
3902 1675 0
3929 1711 0
3958 1746 0
3989 1779 0
4021 1811 0
4054 1839 0
4090 1867 0
4095 1894 0
4095 1918 0
4095 1941 0
4095 1965 0
4095 1986 0
4095 2006 0
4095 2023 0
4095 2039 0
0 55 534
0 55 534
0 62 536
0 73 538
0 83 515
49 69 485
161 67 473
327 58 467
416 21 456
493 0 445
582 0 444
677 0 436
779 0 422
883 0 407
991 0 402
1111 0 397
1259 0 391
1496 0 379
1754 0 363
2030 0 327
2300 0 256
2549 0 164
2759 0 61
2938 0 0
3082 0 0
3194 0 0
3279 0 0
3349 0 0
3405 0 0
3450 0 0
3487 0 0
3521 275 0
3551 561 0
3577 712 0
3600 827 0
3624 928 0
3645 1013 0
3666 1089 0
3684 1154 0
3703 1218 0
3722 1277 0
3742 1332 0
3761 1383 0
3781 1433 0
3802 1481 0
3825 1529 0
3849 1575 0
3875 1622 0
3905 1666 0
3936 1709 0
3969 1748 0
4005 1787 0
4043 1821 0
4083 1853 0
4095 1882 0
4095 1909 0
4095 1932 0
4095 1953 0
4095 1974 0
4095 1993 0
4095 2011 0
4095 2013 0
4095 1976 0
4095 1975 0
0 63 557
0 71 563
0 74 568
0 88 573
0 105 568
13 101 521
146 93 500
293 87 487
412 71 478
490 19 461
570 0 450
662 0 446
759 0 438
861 0 425
969 0 408
1083 0 399
1259 0 392
1484 0 382
1728 0 367
1994 0 338
2255 0 281
2502 0 197
2711 0 105
2895 0 0
3044 0 0
3164 0 0
3255 0 0
3330 0 0
3391 0 0
3439 0 0
3479 0 0
3514 0 0
3545 418 0
3572 625 0
3597 759 0
3620 872 0
3642 965 0
3663 1048 0
3682 1119 0
3702 1188 0
3721 1250 0
3740 1308 0
3759 1363 0
3780 1416 0
3801 1466 0
3824 1515 0
3848 1564 0
3874 1610 0
3903 1655 0
3935 1699 0
3966 1738 0
4002 1778 0
4039 1813 0
4079 1846 0
4095 1874 0
4095 1901 0
4095 1926 0
4095 1947 0
4095 1969 0
4095 1988 0
4095 2007 0
4095 2004 0
4095 1971 0
4095 1973 0
0 75 587
0 84 593
0 86 599
0 104 604
0 120 606
0 134 584
111 120 530
249 112 514
383 105 502
475 77 490
556 17 470
642 0 456
733 0 447
833 0 439
938 0 429
1077 0 411
1261 0 394
1467 0 385
1699 0 371
1952 0 349
2209 0 305
2454 0 230
2671 0 143
2861 0 42
3020 0 0
3148 0 0
3243 0 0
3322 0 0
3385 0 0
3435 0 0
3476 0 0
3512 0 0
3543 28 0
3571 517 0
3595 681 0
3619 810 0
3641 915 0
3661 1004 0
3681 1081 0
3700 1152 0
3719 1219 0
3739 1280 0
3758 1337 0
3779 1393 0
3800 1448 0
3823 1498 0
3847 1548 0
3873 1596 0
3902 1643 0
3933 1687 0
3964 1728 0
3999 1767 0
4035 1803 0
4074 1837 0
4095 1866 0
4095 1894 0
4095 1918 0
4095 1941 0
4095 1962 0
4095 1982 0
4095 2002 0
4095 1992 0
4095 1966 0
4095 1969 0
0 86 618
0 90 624
0 97 630
0 111 635
0 132 640
0 156 639
13 163 592
213 143 546
351 137 533
443 127 519
538 82 503
623 10 483
712 0 467
806 0 450
917 0 442
1080 0 431
1260 0 412
1457 0 390
1680 0 375
1917 0 358
2166 0 324
2410 0 258
2629 0 179
2826 0 86
2993 0 0
3128 0 0
3232 0 0
3316 0 0
3383 0 0
3434 0 0
3476 0 0
3511 0 0
3543 0 0
3571 352 0
3595 584 0
3618 736 0
3641 854 0
3661 952 0
3680 1036 0
3700 1113 0
3719 1185 0
3739 1251 0
3758 1312 0
3779 1370 0
3800 1426 0
3824 1482 0
3847 1532 0
3873 1583 0
3902 1631 0
3932 1676 0
3963 1717 0
3997 1756 0
4033 1793 0
4070 1826 0
4095 1856 0
4095 1885 0
4095 1910 0
4095 1933 0
4095 1954 0
4095 1976 0
4095 1996 0
4095 1976 0
4095 1960 0
4095 1966 0
0 97 649
0 106 656
0 108 662
0 113 667
0 135 672
0 165 677
0 193 670
105 189 597
330 167 569
412 157 550
505 144 537
603 81 521
688 0 499
789 0 482
922 0 466
1072 0 446
1247 0 434
1446 0 418
1663 0 395
1901 0 366
2141 0 336
2378 0 282
2598 0 207
2798 0 122
2970 0 23
3110 0 0
3219 0 0
3305 0 0
3376 0 0
3432 0 0
3475 0 0
3512 0 0
3544 0 0
3571 0 0
3596 450 0
3619 645 0
3641 785 0
3662 896 0
3681 987 0
3701 1072 0
3720 1149 0
3740 1220 0
3759 1284 0
3780 1347 0
3802 1406 0
3825 1461 0
3849 1515 0
3875 1566 0
3902 1616 0
3932 1662 0
3963 1705 0
3996 1745 0
4031 1782 0
4068 1816 0
4095 1847 0
4095 1875 0
4095 1902 0
4095 1925 0
4095 1947 0
4095 1969 0
4095 1990 0
4095 1956 0
4095 1953 0
4095 1961 0
0 103 682
0 106 689
0 114 695
0 125 700
0 143 704
0 163 709
0 199 714
9 231 695
215 219 612
396 192 594
472 177 571
564 161 559
675 82 540
790 0 520
921 0 506
1072 0 489
1242 0 469
1433 0 446
1646 0 426
1882 0 403
2123 0 373
2364 0 319
2578 0 240
2777 0 157
2948 0 62
3091 0 0
3204 0 0
3296 0 0
3368 0 0
3425 0 0
3471 0 0
3510 0 0
3544 0 0
3573 0 0
3597 16 0
3621 523 0
3643 696 0
3664 827 0
3683 932 0
3703 1025 0
3723 1111 0
3743 1185 0
3763 1254 0
3783 1320 0
3805 1383 0
3828 1441 0
3851 1497 0
3877 1550 0
3904 1600 0
3933 1647 0
3962 1690 0
3995 1732 0
4028 1769 0
4065 1804 0
4095 1835 0
4095 1865 0
4095 1890 0
4095 1915 0
4095 1939 0
4095 1962 0
4095 1971 0
4095 1939 0
4095 1945 0
4095 1956 0
0 112 716
0 116 724
0 124 730
0 130 734
