dist/LUTS/Anime8.3dl
0 65 130 195 260 325 390 455 520 585 650 715 780 845 910 975 1040 1105 1170 1235 1300 1365 1430 1495 1560 1625 1690 1755 1820 1885 1950 2015 2080 2145 2210 2275 2340 2405 2470 2535 2600 2665 2730 2795 2860 2925 2990 3055 3120 3185 3250 3315 3380 3445 3510 3575 3640 3705 3770 3835 3900 3965 4030 4095
0 0 402
0 1 401
0 0 401
0 0 401
5 0 401
96 0 400
223 0 399
358 14 398
437 34 395
525 51 392
620 72 388
722 89 383
835 95 376
954 110 368
1078 127 355
1215 153 332
1369 168 291
1657 165 184
1954 240 32
2227 418 0
2447 582 0
2611 750 0
2726 895 0
2815 1020 0
2885 1124 0
2943 1215 0
2991 1292 0
3036 1362 0
3076 1424 0
3115 1482 0
3151 1532 0
3186 1578 0
3221 1621 0
3257 1662 0
3291 1697 0
3327 1733 0
3365 1766 0
3401 1795 0
3440 1824 0
3478 1850 0
3519 1874 0
3561 1897 0
3604 1919 0
3651 1940 0
3700 1959 0
3752 1978 0
3806 1995 0
3865 2011 0
3926 2026 0
3989 2040 0
4051 2051 0
4095 2061 0
4095 2069 0
4095 2076 0
4095 2081 0
4095 2085 0
4095 2088 0
4095 2089 0
4095 2090 0
4095 2039 0
4095 1978 0
4095 1951 0
4095 1931 0
4095 1918 0
0 2 402
0 2 402
0 0 401
0 0 401
10 0 401
94 0 400
212 5 399
358 14 398
435 30 395
523 52 392
613 72 388
713 91 383
825 95 377
940 107 369
1061 127 358
1193 160 335
1340 172 300
1619 169 199
1903 229 60
2170 391 0
2394 543 0
2566 707 0
2689 855 0
2785 981 0
2860 1092 0
2921 1185 0
2971 1264 0
3018 1338 0
3060 1403 0
3100 1462 0
3136 1514 0
3173 1564 0
3209 1608 0
3245 1650 0
3280 1687 0
3316 1723 0
3353 1756 0
3392 1788 0
3429 1816 0
3468 1844 0
3510 1870 0
3552 1893 0
3596 1915 0
3644 1936 0
3692 1956 0
3746 1976 0
3800 1993 0
3858 2009 0
3920 2025 0
3982 2038 0
4043 2049 0
4095 2060 0
4095 2068 0
4095 2075 0
4095 2080 0
4095 2084 0
4095 2087 0
4095 2088 0
4095 2089 0
4095 2051 0
4095 1982 0
4095 1954 0
4095 1932 0
4095 1918 0
0 7 406
0 6 404
0 4 401
0 0 403
1 1 402
94 0 400
204 6 399
357 19 397
434 40 395
517 59 392
606 80 388
704 94 384
811 103 377
924 115 370
1040 140 360
1170 168 338
1318 188 304
1586 196 209
1862 243 79
2124 386 0
2350 526 0
2531 687 0
2662 831 0
2763 959 0
2842 1073 0
2906 1170 0
2960 1252 0
3007 1326 0
3051 1394 0
3091 1454 0
3128 1506 0
3165 1556 0
3202 1602 0
3238 1643 0
3272 1680 0
3309 1717 0
3345 1751 0
3383 1783 0
3419 1810 0
3460 1839 0
3501 1865 0
3543 1889 0
3587 1912 0
3635 1934 0
3686 1955 0
3739 1974 0
3794 1992 0
3852 2008 0
3913 2024 0
3974 2037 0
4035 2048 0
4095 2058 0
4095 2068 0
4095 2074 0
4095 2080 0
4095 2084 0
4095 2086 0
4095 2088 0
4095 2089 0
4095 2064 0
4095 1987 0
4095 1957 0
4095 1933 0
4095 1919 0
0 15 420
0 15 417
0 13 409
0 4 404
9 0 406
90 0 405
207 10 402
355 24 397
431 41 395
512 66 392
600 89 388
695 105 383
797 120 377
909 136 370
1026 158 360
1150 187 339
1309 213 304
1569 231 211
1833 293 87
2090 401 0
2315 528 0
2500 676 0
2637 819 0
2744 950 0
2827 1064 0
2893 1163 0
2948 1247 0
2997 1323 0
3042 1390 0
3083 1450 0
3120 1501 0
3158 1552 0
3194 1597 0
3230 1639 0
3264 1675 0
3300 1712 0
3337 1746 0
3374 1777 0
3412 1807 0
3452 1836 0
3493 1862 0
3535 1887 0
3581 1911 0
3630 1933 0
3680 1955 0
3734 1974 0
3787 1991 0
3848 2009 0
3907 2024 0
3969 2037 0
4029 2048 0
4092 2059 0
4095 2067 0
4095 2074 0
4095 2080 0
4095 2083 0
4095 2086 0
4095 2088 0
4095 2089 0
4095 2077 0
4095 1997 0
4095 1961 0
4095 1936 0
4095 1920 0
0 28 435
0 28 437
0 26 420
0 28 414
9 9 405
90 0 408
217 0 407
354 19 402
431 41 395
512 71 391
596 96 388
688 114 383
792 129 377
898 152 369
1013 179 360
1136 212 339
1312 253 297
1561 285 207
1818 343 85
2069 422 0
2292 541 0
2479 683 0
2618 822 0
2729 951 0
2814 1066 0
2882 1162 0
2939 1246 0
2989 1321 0
3034 1387 0
3075 1446 0
3113 1499 0
3150 1549 0
3187 1593 0
3222 1635 0
3257 1672 0
3293 1709 0
3330 1744 0
3367 1775 0
3404 1805 0
3444 1833 0
3486 1860 0
3530 1886 0
3576 1911 0
3625 1933 0
3675 1955 0
3729 1975 0
3785 1993 0
3844 2010 0
3903 2025 0
3964 2038 0
4023 2049 0
4087 2059 0
4095 2068 0
4095 2075 0
4095 2080 0
4095 2084 0
4095 2087 0
4095 2089 0
4095 2090 0
4095 2089 0
4095 2012 0
4095 1965 0
4095 1939 0
4095 1922 0
0 44 460
0 49 457
0 48 444
0 40 429
0 44 420
96 22 408
222 0 412
362 7 410
437 29 400
516 55 392
598 90 388
688 114 383
787 133 377
894 161 369
1004 199 359
1125 238 339
1327 291 288
1565 329 198
1813 375 78
2056 451 0
2276 561 0
2463 694 0
2604 829 0
2715 955 0
2802 1066 0
2871 1163 0
2929 1246 0
2980 1320 0
3025 1387 0
3067 1447 0
3104 1498 0
3142 1547 0
3178 1592 0
3214 1633 0
3249 1671 0
3285 1708 0
3323 1743 0
3361 1775 0
3399 1805 0
3439 1834 0
3483 1862 0
3528 1889 0
3573 1912 0
3623 1936 0
3674 1957 0
3728 1977 0
3781 1995 0
3840 2012 0
3898 2027 0
3959 2040 0
4018 2051 0
4079 2061 0
4095 2069 0
4095 2076 0
4095 2081 0
4095 2085 0
4095 2088 0
4095 2089 0
4095 2091 0
4095 2091 0
4095 2024 0
4095 1970 0
4095 1942 0
4095 1925 0
0 74 492
0 78 493
0 77 480
0 75 450
0 69 440
65 69 428
231 43 413
370 4 415
442 12 410
519 35 398
602 69 389
690 99 384
789 127 377
892 158 370
1003 196 360
1148 254 334
1352 315 276
1584 354 185
1822 397 65
2059 472 0
2272 580 0
2454 707 0
2595 838 0
2705 961 0
2792 1069 0
2862 1165 0
2919 1246 0
2970 1320 0
3015 1386 0
3057 1445 0
3095 1497 0
3132 1545 0
3168 1590 0
3205 1633 0
3239 1670 0
3276 1707 0
3314 1742 0
3353 1776 0
3391 1806 0
3434 1836 0
3476 1864 0
3523 1891 0
3568 1914 0
3618 1938 0
3670 1959 0
3722 1978 0
3776 1996 0
3832 2013 0
3891 2028 0
3951 2042 0
4008 2053 0
4066 2062 0
4095 2070 0
4095 2077 0
4095 2082 0
4095 2086 0
4095 2090 0
4095 2091 0
4095 2093 0
4095 2093 0
4095 2033 0
4095 1974 0
4095 1946 0
4095 1928 0
0 117 529
0 122 532
0 125 522
0 119 484
0 112 466
59 104 453
204 112 437
374 72 416
451 17 412
530 10 406
613 30 390
697 66 385
794 95 379
897 130 371
1015 172 360
1184 243 329
1382 305 268
1601 352 179
1829 399 62
2053 473 0
2259 578 0
2437 702 0
2576 827 0
2686 948 0
2774 1055 0
2844 1151 0
2902 1232 0
2953 1306 0
2999 1372 0
3041 1431 0
3078 1482 0
3116 1532 0
3152 1577 0
3187 1620 0
3222 1658 0
3258 1696 0
3296 1733 0
3335 1768 0
3372 1798 0
3414 1829 0
3457 1857 0
3501 1884 0
3547 1908 0
3595 1931 0
3643 1952 0
3694 1972 0
3745 1989 0
3799 2006 0
3854 2021 0
3910 2035 0
3962 2046 0
4020 2057 0
4077 2066 0
4095 2073 0
4095 2079 0
4095 2083 0
4095 2087 0
4095 2090 0
4095 2092 0
4095 2093 0
4095 2093 0
4095 2026 0
4095 1977 0
4095 1952 0
0 212 599
0 211 600
0 220 588
0 216 555
0 198 508
89 187 492
221 180 471
384 198 448
489 130 414
585 37 403
686 0 392
789 12 383
900 35 375
1029 80 363
1222 142 331
1452 201 259
1703 280 148
1955 388 2
2185 498 0
2387 636 0
2548 781 0
2670 917 0
2761 1032 0
2836 1135 0
2896 1223 0
2948 1301 0
2993 1368 0
3035 1428 0
3073 1483 0
3109 1531 0
3143 1575 0
3178 1619 0
3213 1658 0
3247 1695 0
3281 1728 0
3318 1761 0
3354 1792 0
3391 1821 0
3427 1846 0
3467 1872 0
3506 1895 0
3549 1918 0
3591 1938 0
3637 1957 0
3686 1976 0
3738 1994 0
3792 2011 0
3852 2027 0
3910 2041 0
3976 2055 0
4038 2066 0
4095 2077 0
4095 2085 0
4095 2092 0
4095 2097 0
4095 2100 0
4095 2103 0
4095 2103 0
4095 2103 0
4095 2064 0
4095 1999 0
4095 1973 0
4095 1952 0
4095 1938 0
0 277 635
0 295 639
0 314 636
0 317 613
0 299 554
90 279 529
222 262 508
360 261 484
471 275 456
583 179 409
684 52 393
796 0 384
935 0 376
1102 0 363
1292 7 330
1512 30 260
1746 78 157
1979 226 21
2192 417 0
2382 570 0
2537 722 0
2657 863 0
2747 985 0
2822 1093 0
2883 1187 0
2936 1270 0
2982 1342 0
3024 1407 0
3064 1466 0
3100 1518 0
3134 1564 0
3169 1609 0
3204 1650 0
3238 1688 0
3273 1724 0
3308 1758 0
3344 1790 0
3383 1820 0
3418 1845 0
3459 1872 0
3498 1895 0
3541 1919 0
3584 1939 0
3632 1960 0
3681 1980 0
3733 1999 0
3788 2015 0
3847 2031 0
3906 2045 0
3970 2058 0
4032 2069 0
4095 2080 0
4095 2088 0
4095 2095 0
4095 2101 0
4095 2105 0
4095 2107 0
4095 2108 0
4095 2107 0
4095 2079 0
4095 2007 0
4095 1980 0
4095 1957 0
4095 1943 0
0 351 676
0 365 683
0 371 681
0 377 654
0 370 606
31 362 563
206 347 545
347 333 520
434 338 496
554 350 461
673 228 404
822 61 379
986 0 374
1159 0 363
1348 0 335
1563 0 272
1787 0 177
2005 0 54
2208 150 0
2388 456 0
2540 636 0
2657 793 0
2748 927 0
2822 1047 0
2883 1149 0
2936 1239 0
2981 1316 0
3023 1386 0
3062 1449 0
3098 1507 0
3132 1555 0
3167 1601 0
3200 1644 0
3234 1685 0
3268 1720 0
3302 1754 0
3339 1787 0
3376 1817 0
3411 1845 0
3451 1872 0
3492 1897 0
3534 1919 0
3577 1940 0
3624 1961 0
3675 1981 0
3728 2001 0
3781 2017 0
3840 2035 0
3901 2049 0
3962 2062 0
4026 2073 0
4090 2083 0
4095 2091 0
4095 2098 0
4095 2104 0
4095 2108 0
4095 2111 0
4095 2112 0
4095 2112 0
4095 2095 0
4095 2019 0
4095 1987 0
4095 1964 0
4095 1949 0
0 403 716
0 413 726
0 422 722
0 428 704
0 424 654
0 415 603
164 403 580
339 391 558
418 384 534
523 406 512
680 421 467
838 354 389
1004 103 364
1189 0 359
1388 0 336
1606 0 284
1825 0 200
2035 0 91
2230 0 0
2404 116 0
2550 500 0
2665 693 0
2754 846 0
2828 981 0
2889 1096 0
2941 1195 0
2985 1281 0
3027 1358 0
3066 1428 0
3100 1487 0
3133 1540 0
3167 1590 0
3199 1634 0
3233 1676 0
3265 1713 0
3299 1749 0
3334 1783 0
3371 1814 0
3407 1842 0
3446 1870 0
3486 1895 0
3529 1920 0
3573 1943 0
3622 1965 0
3671 1984 0
3725 2003 0
3779 2021 0
3838 2037 0
3899 2053 0
3958 2066 0
4021 2078 0
4083 2087 0
4095 2095 0
4095 2103 0
4095 2107 0
4095 2112 0
4095 2114 0
4095 2116 0
4095 2117 0
4095 2112 0
4095 2037 0
4095 1996 0
4095 1971 0
4095 1955 0
0 456 753
0 469 762
0 479 760
0 483 746
0 486 702
0 482 648
87 478 619
337 475 605
436 467 581
524 469 556
652 498 527
838 503 469
1008 427 371
1187 183 334
1401 0 326
1629 0 287
1853 0 218
2065 0 122
2257 0 0
2428 0 0
2570 128 0
2683 547 0
2770 738 0
2841 895 0
2900 1025 0
2951 1138 0
2994 1234 0
3034 1318 0
3071 1394 0
3106 1461 0
3137 1516 0
3169 1570 0
3201 1618 0
3233 1662 0
3265 1702 0
3297 1740 0
3333 1775 0
3368 1807 0
3404 1838 0
3443 1868 0
3484 1894 0
3528 1920 0
3571 1943 0
3619 1965 0
3670 1987 0
3723 2007 0
3777 2024 0
3837 2041 0
3898 2056 0
3958 2069 0
4017 2081 0
4080 2091 0
4095 2101 0
4095 2107 0
4095 2112 0
4095 2116 0
4095 2118 0
4095 2120 0
4095 2121 0
4095 2121 0
4095 2055 0
4095 2005 0
4095 1979 0
4095 1962 0
0 553 814
0 573 824
0 588 825
0 597 808
0 598 766
0 592 712
0 586 669
313 580 649
449 569 630
537 558 603
639 560 572
793 600 537
994 598 466
1183 508 330
1385 282 270
1625 0 261
1868 0 215
2089 0 139
2284 0 34
2456 0 0
2594 0 0
2704 221 0
2788 585 0
2859 778 0
2915 932 0
2965 1059 0
3006 1168 0
3044 1263 0
3080 1346 0
3113 1420 0
3143 1483 0
3174 1542 0
3205 1594 0
3236 1642 0
3266 1685 0
3299 1726 0
3334 1764 0
3369 1801 0
3404 1832 0
3444 1863 0
3485 1892 0
3528 1919 0
3573 1944 0
3620 1966 0
3671 1988 0
3724 2008 0
3780 2027 0
3838 2044 0
3895 2059 0
3956 2072 0
4015 2084 0
4077 2094 0
4095 2103 0
4095 2110 0
4095 2116 0
4095 2120 0
4095 2123 0
4095 2124 0
4095 2125 0
4095 2126 0
4095 2068 0
4095 2014 0
4095 1988 0
4095 1969 0
0 665 874
0 696 887
0 718 888
0 729 869
