dist/LUTS/Anime7.3dl
0 1365 2730 4095
0 0 377
1177 351 250
3101 1445 0
4095 2046 0
0 580 1189
1491 954 571
3163 1095 0
4049 2054 0
0 2003 2614
0 2697 2583
2773 2493 1170
4095 1446 0
0 3698 3810
778 3905 3740
3132 3890 3238
4095 3263 2206
0 2346 2421
0 1343 2162
3002 977 0
4010 2049 0
0 2210 2513
0 2252 2302
2939 1380 659
4030 1999 0
0 1746 2771
0 2208 2741
2329 2632 2400
4095 1513 480
0 3323 3863
0 3640 3860
2986 3933 3410
4095 3381 2469
0 3347 3469
0 3258 3356
1376 2771 3095
3518 2346 2427
0 3269 3398
0 3261 3369
1372 3019 3142
3525 2431 2436
0 3170 3505
0 3210 3476
1477 3289 3332
3882 2817 2442
0 2926 4010
0 2875 4008
2265 3513 3952
4095 3783 3317
0 3940 4074
0 3940 4074
0 3960 4062
2869 3568 4041
0 3942 4074
0 3942 4074
0 3963 4062
2939 3637 4042
0 3932 4077
0 3932 4076
0 3932 4076
3374 3871 4032
0 3432 4095
0 3406 4095
0 3290 4095
3970 4023 4025
