dist/LUTS/Anime8.3dl
0 585 1170 1755 2340 2925 3510 4095
0 0 402
525 51 392
1954 240 32
3036 1362 0
3365 1766 0
3752 1978 0
4095 2081 0
4095 1918 0
0 277 635
583 179 409
2192 417 0
3024 1407 0
3344 1790 0
3733 1999 0
4095 2101 0
4095 1943 0
0 1840 1245
0 2015 745
2438 1348 0
3166 774 0
3394 1639 0
3741 1984 0
4095 2131 0
4095 2007 0
0 2747 1864
0 2808 1728
1863 2641 1030
2937 2065 0
3564 410 0
3901 1429 0
4095 1877 0
4095 2006 0
0 2984 2237
943 3034 2187
2089 2960 2045
2361 2862 1299
3271 2380 0
3990 1205 15
4095 1662 0
4095 2013 0
916 3325 2636
1056 3338 2570
1595 3330 2300
2836 3270 2479
2842 3075 1793
3904 2650 0
4095 2027 1059
4095 2196 1344
675 3820 3280
862 3823 3216
1517 3830 2956
2465 3805 2766
3435 3695 2700
3649 3454 2188
4095 2939 1445
4095 2471 1883
2108 4095 3872
2211 4095 3853
2537 4095 3749
2989 4079 3520
3374 4054 3387
3593 4061 2759
4095 3787 1968
4095 2721 1954
0 149 577
445 23 467
1810 391 74
2971 1334 0
3276 1717 0
3636 1950 0
4095 2082 0
4095 1936 0
0 153 694
486 304 621
2061 0 77
2998 1300 0
3281 1733 0
3645 1972 0
4095 2099 0
4095 1956 0
0 1792 1529
0 2040 999
2363 1333 183
3139 420 0
3352 1538 0
3679 1945 0
4095 2123 0
4095 2014 0
0 2732 2017
0 2809 1881
2017 2637 1376
2903 2071 0
3525 195 0
3865 1365 0
4095 1858 0
4095 2004 0
34 2990 2310
1054 3061 2288
2021 2995 2076
2422 2864 1534
3239 2393 0
3971 1209 0
4095 1642 0
4095 2018 0
940 3341 2699
1070 3389 2666
1597 3381 2374
2852 3299 2512
2846 3054 1908
3881 2674 0
4095 2030 1051
4095 2208 1372
718 3828 3335
953 3848 3299
1558 3861 3046
2439 3820 2798
3417 3710 2720
3654 3456 2230
4095 2952 1443
4095 2478 1891
2090 4095 3890
2220 4095 3877
2543 4095 3781
2990 4081 3545
3380 4055 3409
3592 4062 2794
4095 3794 1991
4095 2722 1954
0 604 952
0 558 926
1644 0 593
2939 1136 0
3231 1657 0
3596 1955 0
4095 2108 0
4095 1965 0
0 732 1096
0 801 1099
1823 462 694
2978 945 0
3250 1618 0
3612 1956 0
4095 2115 0
4095 1981 0
0 817 1662
0 1204 1739
1963 1597 990
3072 0 487
3345 1278 0
3667 1862 0
4095 2108 0
4095 2020 0
0 2386 2202
0 2681 2245
2078 2645 1909
2742 2210 593
3472 503 0
3866 1181 0
4095 1798 0
4095 1999 0
783 2923 2452
1201 3029 2497
1701 3016 2140
2434 2798 2072
3116 2498 506
3946 1333 0
4095 1635 0
4095 2029 0
1025 3307 2843
1115 3383 2862
1521 3414 2563
2741 3332 2534
2836 3017 2222
3788 2778 1019
4095 2069 1057
4095 2220 1413
591 3776 3445
867 3811 3437
1472 3873 3262
2295 3836 2875
3353 3747 2812
3659 3462 2380
4095 3014 1538
4095 2489 1897
1864 4053 3945
2017 4071 3937
2409 4095 3869
2930 4095 3646
3372 4055 3468
3585 4062 2930
4095 3825 2086
4095 2728 1954
0 2043 1922
0 2015 1881
1470 564 1656
2799 0 668
3200 1545 0
3586 1905 0
4095 2114 0
4095 1999 0
0 2087 1969
0 2170 1976
1349 946 1703
2781 844 684
3233 1436 0
3603 1879 0
4095 2109 0
4095 2007 0
0 1945 2095
0 2107 2117
1124 2014 1781
2733 1448 1020
3305 1071 0
3706 1583 0
4095 2034 0
4095 2023 0
0 1672 2294
0 1996 2327
1465 2520 2200
2377 2439 1605
3234 1545 999
3856 1029 0
4095 1715 0
4095 1998 0
954 2613 2512
1317 2761 2573
1628 2986 2505
2393 2897 2294
2871 2684 1573
3786 1922 971
4095 1641 325
4095 2053 0
1187 3104 2937
1257 3197 2999
1458 3369 2931
2147 3383 2499
2827 3095 2474
3638 2930 1732
4095 2139 1063
4095 2241 1465
481 3551 3550
714 3613 3564
1250 3782 3522
2078 3880 3170
3203 3816 2989
3643 3508 2586
4095 3118 1861
4095 2507 1910
1124 3863 4015
1360 3901 4013
1954 4015 3976
2725 4095 3851
3329 4058 3574
3589 4060 3198
4095 3884 2267
4095 2737 1953
0 2699 2385
0 2683 2350
0 2533 2227
2424 931 1820
3100 1105 794
3591 1755 0
4095 2070 0
4095 2026 0
0 2662 2358
0 2701 2366
0 2572 2223
2392 1218 1849
3072 1343 816
3596 1748 0
4095 2053 0
4095 2026 0
0 2617 2378
0 2673 2391
0 2616 2239
2190 1998 1945
2929 1984 1060
3600 1798 0
4095 1811 0
4095 2018 0
0 2423 2440
0 2517 2459
1127 2517 2327
1976 2568 2119
2796 2344 1759
3557 2065 1099
4095 1617 0
4095 2000 0
622 2379 2577
1198 2497 2609
1677 2616 2538
1971 2954 2453
2610 2827 2110
3531 2441 1798
4095 1805 700
4095 2076 0
1355 2790 2945
1437 2848 2982
1601 2990 2978
1831 3356 2972
2918 3316 2745
3493 3065 2127
4095 2460 1773
4095 2268 1506
743 3124 3554
864 3174 3576
1160 3349 3591
1743 3746 3601
2769 3879 3175
3606 3687 2811
4095 3244 2154
4095 2528 1929
0 3360 4061
0 3410 4063
412 3608 4052
2062 3937 4012
3173 4093 3834
3638 4050 3557
4095 3962 2584
4095 2752 1953
0 2965 2668
0 2958 2642
0 2905 2550
1290 2471 2425
2650 1985 2038
3351 1914 1183
4090 2073 0
4095 2001 0
0 2948 2649
0 2964 2651
0 2911 2552
1352 2572 2431
2609 2101 2064
3326 2004 1223
4075 2096 0
4095 1996 0
0 2937 2664
0 2961 2675
0 2928 2578
1556 2809 2459
2492 2398 2150
3237 2319 1430
4058 2211 193
4095 1982 0
0 2883 2718
0 2918 2737
0 2918 2652
1707 2907 2521
2388 2670 2279
3158 2621 1846
4046 2393 1239
4095 2004 0
0 2777 2834
0 2816 2855
1013 2844 2795
1799 2876 2687
2315 2946 2477
3243 2760 2215
4095 2546 1819
4095 2110 452
827 2761 3092
1047 2796 3118
1478 2853 3098
1929 2987 3072
2329 3424 3056
3240 3224 2518
4095 2709 2198
4095 2301 1524
533 2909 3598
775 2942 3619
1231 3034 3624
1739 3260 3643
2407 3750 3680
3439 3864 3324
4095 3440 2548
4095 2620 2093
0 3085 4059
0 3095 4063
0 3126 4068
0 3292 4072
2336 3843 4037
3608 4055 3806
4044 4042 3070
4095 2888 1946
0 3343 3203
0 3336 3193
0 3319 3129
0 3232 3028
2353 2534 2803
2984 2496 2336
3910 2398 1795
4095 2427 1020
0 3336 3200
0 3351 3217
0 3332 3146
0 3253 3042
2306 2577 2809
2975 2523 2348
3904 2428 1816
4095 2456 1113
0 3336 3237
0 3363 3259
0 3355 3187
323 3312 3081
2117 2752 2839
2954 2628 2405
3898 2541 1901
4095 2549 1388
0 3319 3310
0 3352 3337
0 3365 3273
236 3373 3167
1954 3166 2977
2925 2787 2515
3905 2723 2037
4095 2662 1703
0 3246 3440
0 3277 3461
0 3311 3412
0 3369 3327
1874 3391 3140
2865 3002 2700
3948 2940 2260
4095 2758 1980
0 3102 3603
0 3130 3621
0 3174 3594
0 3250 3537
1831 3349 3408
2770 3343 3066
4016 3157 2689
4095 2847 2255
0 2993 3815
0 3017 3829
0 3067 3813
1151 3174 3787
2168 3375 3737
3054 3761 3720
3924 3736 3221
4095 2991 2569
0 3055 4095
0 3058 4095
0 3055 4095
0 3053 4095
1138 3238 4082
2858 3774 4022
3875 4036 3862
4095 3508 2803
0 3807 3841
0 3804 3837
0 3786 3813
0 3773 3763
1171 3567 3700
3473 2758 3480
3977 2793 2800
4095 2676 2320
0 3806 3839
0 3803 3835
0 3785 3811
0 3776 3762
1149 3596 3702
3447 2780 3494
3970 2808 2811
4095 2690 2330
0 3816 3857
0 3813 3853
0 3795 3831
0 3798 3784
1099 3706 3725
3304 2887 3566
3960 2876 2872
4095 2758 2383
0 3832 3903
0 3828 3899
0 3816 3884
0 3819 3842
815 3821 3768
2802 3140 3635
3938 3007 3002
4095 2894 2492
0 3831 3970
0 3831 3971
0 3822 3960
0 3802 3938
0 3875 3855
2562 3729 3762
3895 3219 3226
4095 3127 2689
0 3772 4056
0 3772 4056
0 3769 4053
0 3761 4044
0 3788 4007
2365 3940 3883
3822 3511 3590
4095 3477 3050
0 3552 4081
0 3551 4081
0 3546 4081
0 3538 4082
0 3523 4083
1363 3783 4042
3561 3979 3920
4095 3840 3631
0 3278 4095
0 3276 4095
0 3267 4095
0 3246 4095
0 3218 4095
1033 3439 4091
3588 3939 3996
3972 4026 3988
