dist/LUTS/Anime6.3dl
0 1365 2730 4095
0 0 250
1273 0 144
3501 381 0
4095 1325 0
47 398 836
1754 480 404
3536 0 0
4095 1340 0
0 1579 1958
1977 2285 1905
3340 1992 464
4095 0 0
1606 3672 3689
1978 3936 3579
3491 3939 2720
4095 3192 1263
0 1943 1762
0 1003 1542
3367 0 0
4095 1334 0
0 1806 1856
583 1819 1648
3345 192 258
4095 1253 0
0 1344 2123
1959 1726 2092
3073 2178 1705
4095 0 0
1800 3140 3767
1933 3597 3776
3353 3984 3009
4095 3355 1597
0 3161 3087
0 3037 2908
2516 2367 2527
4029 1776 1738
0 3052 2973
0 3041 2927
2524 2705 2589
4036 1894 1741
0 2913 3143
781 2970 3097
2540 3094 2869
4095 2469 1699
800 2575 4002
1081 2508 3997
2827 3440 3935
4095 3843 2854
0 3972 4095
0 3971 4095
0 3996 4095
3217 3538 4079
0 3974 4095
0 3974 4095
0 4000 4095
3247 3633 4083
0 3963 4095
0 3963 4095
0 3963 4095
3529 3927 4077
0 3295 4095
0 3258 4095
932 3089 4095
4069 4082 4077
