dist/LUTS/Anime5.3dl
0 585 1170 1755 2340 2925 3510 4095
0 0 470
129 44 466
716 178 451
1960 304 247
2709 936 0
3009 1278 0
3384 1559 0
4095 1739 0
0 112 594
87 127 501
714 148 452
1986 167 252
2700 909 0
3002 1272 0
3369 1561 0
4095 1747 0
0 389 1076
0 618 1197
913 567 693
2170 0 357
2757 481 0
3029 1144 0
3376 1535 0
4060 1765 0
0 758 1907
0 1157 2153
0 1738 1520
1957 1343 813
2816 0 472
3120 291 0
3448 1292 0
4031 1694 0
0 1294 2459
0 1588 2540
0 2217 2483
1688 2287 2130
2388 1977 1006
3142 0 647
3622 0 9
4095 1110 0
0 2029 2789
0 2138 2790
0 2481 2780
558 2749 2595
2042 2581 2506
2697 2429 1526
3653 1377 913
4095 963 841
0 2787 3189
0 2817 3174
0 3017 3181
0 3318 3096
2050 3307 2844
2610 2982 2803
3535 2881 2064
4095 1927 1463
0 3785 3815
0 3831 3813
0 3964 3770
0 4068 3586
2183 4015 3270
3224 3957 3148
3829 3801 2719
4095 3284 2265
0 253 713
0 131 696
617 163 494
1837 27 337
2615 805 0
2939 1203 0
3305 1524 0
3999 1729 0
0 320 806
0 323 788
674 234 620
1884 0 339
2633 750 0
2951 1196 0
3311 1529 0
4006 1743 0
0 426 1276
0 469 1351
638 673 1035
2044 0 637
2698 0 0
2998 1033 0
3339 1491 0
4003 1757 0
0 626 1976
0 835 2176
0 1654 2049
1774 1437 1101
2744 0 681
3108 0 0
3424 1227 0
4028 1680 0
0 1112 2492
0 1390 2582
0 2008 2545
1318 2330 2124
2291 2032 1257
3092 583 836
3602 0 106
4095 1083 0
0 1913 2811
0 2069 2831
0 2417 2823
574 2767 2719
2028 2624 2560
2627 2468 1733
3597 1516 1118
4095 1009 888
0 2742 3214
0 2797 3223
0 2994 3228
0 3321 3168
1841 3336 2841
2618 3015 2842
3496 2908 2157
4095 1989 1558
0 3743 3838
0 3805 3848
0 3948 3807
0 4069 3642
2171 4022 3301
3215 3968 3186
3827 3809 2751
4095 3305 2305
0 1422 2004
0 1344 1940
0 745 1796
1529 0 1094
2522 126 454
2914 1121 0
3296 1487 0
3997 1755 0
0 1543 2126
0 1610 2166
0 1231 1931
1493 0 1201
2522 382 534
2922 1115 0
3306 1470 0
4009 1758 0
0 1655 2378
0 1802 2443
0 1640 2137
1384 829 1538
2502 739 799
2975 811 0
3345 1358 0
4013 1740 0
0 1320 2458
0 1503 2560
0 1498 2393
1028 1559 2030
2447 1059 1354
2975 811 841
3464 780 0
4095 1483 0
0 1171 2630
0 1345 2694
0 1515 2630
659 2046 2527
1868 2100 2221
2838 1493 1593
3492 966 922
4095 984 0
0 1604 2866
0 1764 2892
0 2048 2866
791 2495 2832
1735 2735 2612
2376 2566 2331
3379 1990 1849
4095 1080 971
0 2486 3235
0 2549 3249
0 2734 3256
0 3108 3268
1257 3391 2965
2657 3160 2963
3375 3000 2423
4095 2246 2065
0 3476 3871
0 3548 3884
0 3748 3863
0 4015 3786
2077 4048 3434
3178 3997 3316
3815 3852 2872
4095 3387 2448
0 2634 2899
0 2607 2878
0 2536 2795
0 1756 2625
2194 0 1919
2825 0 1184
3257 1292 0
4012 1722 0
0 2613 2889
0 2639 2912
0 2550 2798
0 2012 2631
2180 249 1993
2807 408 1257
3248 1320 67
4028 1713 0
0 2533 2883
0 2609 2926
0 2550 2805
0 2368 2633
2091 1110 2255
2714 1104 1521
3225 1465 606
4064 1633 0
0 2388 2889
0 2494 2943
0 2483 2840
0 2441 2677
1697 1907 2494
2514 1768 1878
3181 1709 1114
4095 1328 0
0 2179 2914
0 2295 2959
0 2331 2889
0 2371 2771
1401 2370 2605
2259 2264 2352
3095 2033 1883
4095 1388 756
0 2007 3032
0 2109 3059
0 2186 3008
0 2314 2927
1523 2517 2853
2049 2665 2730
3073 2400 2443
4095 1945 1892
0 2205 3327
0 2280 3341
0 2429 3320
693 2677 3305
1186 3187 3326
2662 3429 3149
3175 3117 2735
4095 2494 2465
0 2956 3891
0 3016 3905
0 3212 3900
0 3653 3891
1847 4062 3795
3091 4033 3497
3694 3931 3094
4095 3525 2674
0 3088 3294
0 3060 3270
0 2970 3182
0 2848 3040
0 2328 2902
2465 1426 2662
2809 1742 2260
3845 1684 1251
0 3034 3248
0 3068 3279
0 2969 3179
0 2855 3038
0 2421 2910
2428 1540 2679
2785 1783 2278
3839 1726 1270
0 2983 3224
0 3028 3267
0 2960 3173
0 2875 3041
0 2659 2930
2296 1892 2737
2725 1962 2362
3830 1891 1339
0 2885 3212
0 2957 3262
0 2927 3175
0 2887 3062
0 2816 2959
2111 2245 2816
2684 2170 2441
3868 2120 1500
0 2794 3227
0 2861 3270
0 2859 3202
0 2869 3113
0 2878 3023
1756 2580 2872
2689 2396 2465
3943 2282 1897
0 2702 3324
0 2745 3346
0 2767 3303
0 2812 3242
595 2864 3158
1749 2870 3002
2708 2709 2730
4033 2448 2416
0 2461 3552
0 2501 3560
0 2568 3527
0 2680 3485
1144 2841 3442
1930 3238 3393
2807 3222 3136
4095 2774 2795
0 2602 3950
0 2613 3957
0 2629 3954
0 2944 3950
1148 3582 3945
2864 4079 3820
3562 4007 3502
4095 3717 3016
0 3435 3582
0 3421 3571
0 3370 3532
0 3330 3469
0 3260 3404
798 2740 3288
2644 2172 3051
3195 2340 2787
0 3407 3560
0 3425 3575
0 3369 3532
0 3338 3473
0 3273 3407
743 2783 3293
2627 2195 3053
3197 2356 2793
0 3389 3553
0 3418 3576
0 3369 3541
0 3360 3487
0 3317 3421
486 2958 3320
2595 2304 3083
3221 2415 2815
0 3355 3557
0 3392 3588
0 3357 3561
0 3380 3512
0 3374 3450
0 3192 3357
2556 2465 3140
3342 2488 2826
0 3301 3590
0 3331 3617
0 3333 3594
0 3381 3560
0 3424 3507
0 3369 3408
2524 2659 3208
3603 2551 2770
0 3229 3672
0 3260 3690
0 3294 3672
0 3356 3648
0 3434 3605
372 3476 3503
2424 2957 3275
3874 2860 2726
0 3178 3850
0 3190 3865
0 3177 3860
0 3243 3838
0 3320 3791
1168 3419 3673
2528 3439 3458
4042 3259 3189
0 3039 4095
0 3034 4095
0 2986 4095
0 2889 4095
0 2959 4065
2192 3599 3991
3583 4057 3853
4095 3928 3482
0 3856 3934
0 3854 3931
0 3842 3920
0 3817 3896
0 3802 3850
0 3714 3796
1290 3110 3722
3498 2579 3615
0 3851 3928
0 3867 3944
0 3849 3927
0 3823 3903
0 3806 3851
0 3722 3797
1274 3140 3725
3505 2599 3624
0 3858 3936
0 3875 3953
0 3860 3938
0 3833 3914
0 3821 3860
0 3758 3803
1230 3270 3742
3512 2666 3645
0 3861 3948
0 3881 3968
0 3867 3956
0 3843 3936
0 3848 3883
0 3817 3822
1231 3503 3774
3538 2786 3678
0 3857 3976
0 3874 3992
0 3864 3984
0 3848 3972
0 3868 3925
0 3881 3860
1482 3745 3809
3598 2973 3715
0 3828 4022
0 3841 4035
0 3835 4033
0 3821 4025
0 3857 3989
0 3924 3925
1937 3914 3859
3705 3256 3739
0 3758 4095
0 3767 4095
0 3757 4095
0 3734 4095
0 3786 4073
0 3898 4019
2446 3984 3943
3738 3689 3704
0 3613 4095
0 3609 4095
0 3594 4095
0 3559 4095
0 3492 4095
0 3552 4095
3150 3896 4059
4005 4065 3958
0 4046 4095
0 4046 4095
0 4046 4095
0 4046 4095
0 4046 4095
0 4070 4095
1575 4023 4095
2701 3643 4082
0 4046 4095
0 4046 4095
0 4046 4095
0 4046 4095
0 4048 4095
0 4071 4095
1586 4026 4095
2710 3653 4083
0 4046 4095
0 4046 4095
0 4048 4095
0 4048 4095
0 4048 4095
0 4074 4095
1669 4039 4095
2773 3703 4085
0 4049 4095
0 4049 4095
0 4047 4095
0 4047 4095
0 4047 4095
0 4079 4095
1805 4058 4089
2904 3786 4087
0 4045 4095
0 4045 4095
0 4045 4095
0 4045 4095
0 4045 4095
0 4076 4095
1964 4079 4082
3126 3886 4081
0 4030 4095
0 4030 4095
0 4031 4095
0 4032 4095
0 4033 4095
0 4045 4095
2043 4094 4077
3453 3984 4077
0 3968 4095
0 3968 4095
0 3969 4095
0 3969 4095
0 3972 4095
0 3976 4095
1541 4089 4084
3829 4062 4073
0 3457 4095
0 3453 4095
0 3435 4095
0 3397 4095
0 3334 4095
0 3243 4095
876 3583 4095
4068 4082 4078
