dist/LUTS/Anime7.3dl
0 585 1170 1755 2340 2925 3510 4095
0 0 377
418 2 372
935 197 325
2198 569 0
2922 1194 0
3183 1550 0
3498 1839 0
4095 2046 0
0 98 501
422 98 407
935 134 330
2225 531 0
2915 1166 0
3177 1543 0
3485 1840 0
4095 2049 0
0 466 962
0 765 1081
1136 708 547
2420 0 0
2979 814 0
3206 1424 0
3493 1817 0
4061 2060 0
0 924 1824
0 1361 2069
0 1976 1379
2179 1571 523
3049 0 0
3308 822 0
3565 1602 0
4039 1999 0
0 1510 2384
0 1823 2462
0 2437 2393
1975 2484 2019
2592 2202 718
3331 774 189
3745 715 0
4095 1547 0
0 2262 2713
0 2363 2714
0 2662 2703
1351 2877 2513
2315 2730 2418
2877 2601 1364
3737 1699 596
4095 1470 463
0 2910 3138
0 2933 3123
687 3088 3135
1275 3320 3056
2400 3302 2792
2812 3043 2740
3593 2959 1966
4095 2215 1294
0 3698 3810
0 3738 3809
0 3859 3769
1555 3963 3592
2493 3913 3266
3303 3864 3138
3828 3715 2687
4095 3263 2206
0 314 606
14 112 593
832 151 392
2073 450 0
2838 1059 0
3123 1472 0
3432 1802 0
4011 2027 0
0 379 692
5 381 673
908 309 512
2122 368 0
2857 1010 0
3134 1467 0
3437 1807 0
4017 2039 0
0 522 1172
0 585 1249
919 825 901
2295 0 480
2927 564 0
3183 1316 0
3463 1773 0
4014 2051 0
0 777 1897
0 1006 2100
0 1891 1948
1999 1667 905
2982 0 470
3304 390 0
3548 1540 0
4038 1987 0
0 1312 2421
0 1615 2508
0 2240 2460
1658 2525 2013
2504 2253 1052
3283 960 585
3729 651 0
4095 1530 0
0 2150 2738
0 2297 2757
0 2606 2747
1372 2890 2642
2307 2765 2475
2816 2633 1595
3683 1817 886
4095 1504 550
0 2873 3164
0 2916 3175
766 3069 3185
1276 3322 3132
2251 3326 2789
2820 3070 2781
3559 2980 2065
4095 2265 1403
0 3661 3831
0 3715 3840
0 3844 3804
1560 3964 3647
2481 3920 3299
3292 3875 3178
3825 3723 2720
4095 3280 2249
0 1653 1909
0 1569 1844
0 908 1709
1786 0 973
2761 628 0
3103 1392 0
3426 1767 0
4009 2049 0
0 1781 2033
0 1851 2073
0 1441 1837
1750 238 1084
2760 704 17
3111 1387 0
3435 1752 0
4018 2051 0
0 1898 2292
0 2046 2357
0 1877 2040
1648 1013 1430
2737 987 566
3171 1113 0
3474 1652 0
4023 2037 0
0 1542 2383
0 1736 2484
0 1728 2310
1342 1791 1928
2681 1299 1210
3174 1116 582
3597 1174 0
4095 1827 0
0 1377 2562
0 1566 2626
0 1746 2556
1185 2270 2440
2129 2316 2116
3025 1752 1453
3617 1328 654
4095 1464 0
0 1839 2800
0 2002 2824
0 2273 2793
1384 2666 2757
2079 2858 2531
2600 2715 2234
3472 2230 1720
4095 1553 682
0 2662 3183
0 2714 3198
867 2863 3208
1327 3155 3231
1885 3372 2921
2856 3182 2913
3455 3052 2346
4095 2464 1955
0 3444 3857
0 3500 3870
0 3665 3854
1399 3910 3784
2400 3948 3438
3250 3906 3316
3808 3765 2847
4095 3348 2399
0 2816 2829
0 2793 2807
0 2729 2719
0 1994 2547
2472 145 1832
3053 561 1036
3402 1584 0
4023 2022 0
0 2799 2818
0 2820 2842
0 2740 2723
0 2244 2549
2457 630 1906
3033 793 1113
3393 1609 0
4036 2016 0
0 2731 2811
0 2794 2856
0 2738 2730
0 2567 2549
2360 1343 2168
2930 1365 1388
3368 1743 0
4069 1950 0
0 2602 2817
0 2693 2874
0 2678 2765
0 2628 2595
1980 2137 2405
2721 2007 1756
3318 1969 876
4095 1710 0
0 2410 2844
0 2514 2890
0 2541 2816
0 2565 2693
1759 2557 2519
2487 2461 2253
3227 2262 1756
4095 1764 0
0 2243 2968
0 2338 2996
0 2404 2942
1149 2512 2856
1885 2680 2780
2328 2798 2654
3194 2576 2351
4095 2218 1766
0 2420 3280
0 2485 3295
26 2611 3273
1412 2813 3261
1783 3212 3297
2868 3393 3120
3284 3145 2675
4095 2656 2381
0 3039 3870
0 3085 3884
0 3236 3881
1073 3583 3878
2219 3962 3791
3164 3943 3504
3690 3844 3082
4095 3465 2636
0 3177 3256
0 3156 3229
0 3085 3133
0 2972 2980
801 2526 2830
2696 1680 2585
2987 1991 2159
3882 1982 1045
0 3136 3205
0 3162 3240
0 3083 3130
0 2976 2979
871 2605 2839
2658 1790 2601
2964 2029 2178
3876 2018 1067
0 3096 3179
0 3131 3226
0 3072 3123
0 2989 2983
1090 2803 2863
2526 2125 2658
2904 2194 2265
3862 2158 1148
0 3018 3163
0 3072 3218
0 3041 3126
0 2995 3005
1252 2928 2896
2360 2444 2740
2862 2379 2347
3885 2352 1334
0 2941 3177
0 2992 3225
0 2982 3152
0 2978 3059
1339 2977 2964
2079 2730 2800
2865 2573 2373
3941 2486 1774
0 2862 3280
0 2894 3304
0 2905 3259
0 2930 3195
1431 2964 3108
2109 2963 2944
2883 2828 2656
4006 2619 2328
0 2657 3522
0 2689 3531
0 2738 3495
0 2820 3453
1676 2941 3411
2277 3247 3371
2973 3229 3098
4095 2871 2733
0 2758 3923
0 2767 3929
0 2779 3927
160 3025 3924
1823 3521 3925
2960 3991 3813
3550 3924 3509
4095 3641 2998
0 3434 3571
0 3424 3560
0 3387 3517
0 3347 3451
0 3280 3380
1472 2864 3244
2818 2381 2987
3291 2527 2711
0 3414 3549
0 3427 3564
0 3386 3518
0 3352 3455
0 3290 3384
1460 2898 3249
2803 2401 2989
3292 2540 2718
0 3400 3541
0 3421 3565
0 3384 3527
0 3367 3471
0 3324 3400
1433 3037 3283
2773 2494 3022
3311 2589 2741
0 3373 3544
0 3400 3577
0 3374 3547
0 3380 3498
0 3367 3433
1435 3219 3329
2739 2630 3084
3412 2649 2754
0 3331 3577
0 3353 3605
0 3351 3582
0 3379 3549
0 3405 3495
1474 3356 3389
2713 2788 3159
3633 2699 2698
0 3273 3659
0 3295 3677
0 3315 3661
0 3357 3638
0 3412 3597
1572 3439 3494
2642 3024 3237
3864 2940 2661
0 3228 3833
0 3236 3847
0 3225 3843
0 3268 3823
0 3321 3780
1806 3391 3667
2745 3401 3448
3997 3248 3163
0 3109 4064
0 3105 4068
0 3067 4064
0 2990 4056
0 3037 4026
2479 3533 3965
3547 3982 3841
4095 3854 3489
0 3767 3917
0 3765 3915
0 3755 3905
0 3734 3884
0 3716 3842
0 3637 3791
1808 3149 3709
3508 2721 3595
0 3762 3912
0 3777 3925
0 3761 3910
0 3739 3890
0 3720 3843
0 3644 3792
1805 3172 3712
3514 2736 3604
0 3769 3919
0 3784 3933
0 3770 3921
0 3747 3900
0 3733 3851
0 3674 3798
1806 3274 3732
3518 2789 3627
0 3771 3929
0 3788 3946
0 3776 3936
0 3755 3918
0 3756 3872
0 3725 3817
1850 3457 3767
3539 2883 3663
0 3767 3953
0 3782 3967
0 3773 3960
0 3759 3949
0 3774 3909
0 3782 3852
2017 3659 3805
3591 3027 3704
0 3741 3992
0 3752 4002
0 3747 4000
0 3735 3994
0 3764 3963
0 3822 3909
2299 3813 3851
3687 3247 3734
0 3680 4054
0 3688 4063
0 3679 4062
0 3660 4058
0 3701 4033
583 3797 3987
2654 3886 3922
3716 3611 3707
0 3557 4095
0 3555 4095
0 3542 4095
0 3514 4095
0 3460 4095
0 3502 4095
3215 3805 4018
3910 4002 3928
0 3940 4074
0 3940 4074
0 3940 4074
0 3940 4074
0 3940 4073
0 3964 4057
2058 3921 4050
2869 3568 4041
0 3940 4074
0 3940 4074
0 3940 4074
0 3940 4073
0 3941 4074
0 3964 4056
2064 3925 4050
2876 3577 4041
0 3940 4073
0 3940 4073
0 3942 4074
0 3942 4074
0 3942 4074
0 3968 4055
2112 3939 4047
2925 3621 4042
0 3942 4074
0 3942 4074
0 3941 4073
0 3941 4073
0 3941 4073
0 3973 4054
2193 3960 4041
3026 3696 4043
0 3939 4074
0 3938 4074
0 3938 4074
0 3938 4074
0 3938 4074
0 3969 4057
2292 3983 4034
3197 3794 4036
0 3924 4077
0 3924 4077
0 3925 4077
0 3926 4077
0 3927 4077
0 3939 4072
2343 4000 4030
3451 3901 4030
0 3865 4085
0 3865 4084
0 3866 4085
0 3866 4085
0 3868 4084
0 3873 4084
2023 3991 4036
3756 3995 4023
0 3432 4095
0 3429 4095
0 3415 4095
0 3385 4095
0 3335 4095
0 3263 4095
1726 3522 4095
3970 4023 4025
