dist/LUTS/Anime5.3dl
0 1365 2730 4095
0 0 470
957 200 439
2914 1176 0
4095 1739 0
0 467 1294
1272 783 751
2967 793 0
4044 1758 0
0 1763 2689
0 2523 2665
2582 2302 1360
4095 925 599
0 3785 3815
0 4011 3739
3021 3985 3243
4095 3284 2265
0 2107 2508
0 1141 2242
2786 686 389
3999 1756 0
0 1966 2595
0 2018 2394
2728 1122 908
4020 1694 0
0 1514 2837
0 1979 2815
2068 2463 2490
4095 1024 852
0 3322 3879
0 3719 3870
2857 4027 3406
4095 3427 2515
0 3316 3488
0 3199 3385
650 2623 3151
3450 2121 2516
0 3213 3424
0 3212 3396
0 2934 3189
3463 2221 2524
0 3092 3528
0 3160 3497
0 3282 3356
3890 2701 2520
0 2806 4046
0 2746 4045
1894 3574 3976
4095 3860 3316
0 4046 4095
0 4046 4095
0 4067 4095
2701 3643 4082
0 4048 4095
0 4048 4095
0 4070 4095
2791 3721 4085
0 4039 4095
0 4038 4095
0 4039 4095
3356 3958 4078
0 3457 4095
0 3424 4095
0 3277 4095
4068 4082 4078
