dist/LUTS/Anime1.3dl
0 65 130 195 260 325 390 455 520 585 650 715 780 845 910 975 1040 1105 1170 1235 1300 1365 1430 1495 1560 1625 1690 1755 1820 1885 1950 2015 2080 2145 2210 2275 2340 2405 2470 2535 2600 2665 2730 2795 2860 2925 2990 3055 3120 3185 3250 3315 3380 3445 3510 3575 3640 3705 3770 3835 3900 3965 4030 4095
0 0 250
0 2 250
0 1 250
0 0 254
25 0 259
95 0 262
162 0 271
263 0 279
367 0 292
422 0 299
476 0 306
532 0 314
587 0 323
641 0 330
695 0 337
751 0 344
808 0 351
866 0 358
925 0 364
1008 0 370
1090 0 379
1174 0 389
1261 0 398
1352 0 409
1446 0 420
1545 0 431
1642 0 443
1746 0 454
1850 0 465
1956 0 477
2060 0 487
2167 0 498
2272 0 510
2378 0 520
2478 0 531
2578 0 543
2675 0 554
2767 0 566
2853 0 579
2936 0 593
3013 0 606
3086 0 622
3152 0 638
3217 0 655
3277 0 674
3337 0 694
3394 0 714
3452 0 737
3508 0 761
3563 0 787
3616 0 815
3669 0 845
3719 0 875
3769 0 908
3816 0 941
3862 0 975
3907 0 1010
3950 0 1046
3993 0 1083
4036 0 1123
4080 0 1168
4095 0 1220
4095 0 1283
4095 618 1360
0 0 250
0 3 250
0 1 250
0 0 254
25 0 259
95 0 262
162 0 271
271 0 279
367 0 292
422 0 299
474 0 306
528 0 319
583 0 323
636 0 330
691 0 338
747 0 345
802 0 352
859 0 358
918 0 364
998 0 371
1079 0 379
1161 0 388
1246 0 398
1336 0 408
1428 0 419
1525 0 430
1623 0 442
1725 0 453
1831 0 464
1936 0 475
2043 0 486
2150 0 497
2257 0 508
2362 0 519
2464 0 530
2565 0 542
2662 0 553
2757 0 565
2843 0 578
2927 0 591
3006 0 605
3079 0 621
3147 0 637
3212 0 654
3274 0 673
3334 0 693
3392 0 714
3449 0 736
3505 0 760
3560 0 786
3613 0 813
3666 0 842
3716 0 873
3766 0 905
3813 0 938
3859 0 971
3903 0 1006
3946 0 1041
3990 0 1079
4033 0 1118
4077 0 1163
4095 0 1215
4095 0 1279
4095 605 1357
0 2 254
0 2 250
0 1 250
0 0 254
25 0 259
95 0 262
162 0 271
263 0 279
367 0 292
420 0 299
472 0 312
526 0 319
579 0 327
633 0 333
687 0 338
741 0 345
797 0 352
853 0 361
914 0 364
991 0 373
1070 0 379
1151 0 390
1235 0 398
1324 0 408
1415 0 420
1512 0 431
1611 0 442
1713 0 453
1818 0 464
1925 0 476
2031 0 486
2138 0 498
2246 0 509
2351 0 520
2453 0 530
2554 0 541
2653 0 553
2747 0 566
2834 0 577
2919 0 591
2998 0 605
3072 0 620
3141 0 636
3207 0 653
3270 0 672
3330 0 692
3388 0 713
3446 0 736
3502 0 760
3557 0 785
3610 0 812
3662 0 841
3713 0 872
3762 0 903
3809 0 935
3855 0 969
3900 0 1003
3943 0 1037
3986 0 1075
4030 0 1114
4074 0 1158
4095 0 1211
4095 0 1276
4095 591 1355
0 0 259
0 0 259
0 3 258
0 1 254
31 0 258
93 0 267
161 0 275
270 0 284
366 0 296
417 0 304
470 0 316
522 0 322
575 0 330
629 0 337
682 0 344
738 0 348
793 0 355
849 0 362
909 0 368
985 0 374
1063 0 383
1142 0 392
1225 0 402
1312 0 411
1406 0 421
1502 0 434
1600 0 444
1703 0 456
1807 0 467
1914 0 478
2021 0 489
2129 0 499
2236 0 509
2341 0 521
2443 0 531
2544 0 543
2643 0 554
2737 0 566
2826 0 579
2911 0 592
2991 0 606
3066 0 621
3136 0 637
3203 0 654
3266 0 674
3327 0 694
3386 0 714
3444 0 737
3500 0 761
3555 0 787
3607 0 813
3659 0 842
3710 0 872
3759 0 903
3805 0 934
3851 0 967
3896 0 1000
3939 0 1034
3982 0 1071
4026 0 1110
4071 0 1154
4095 0 1207
4095 0 1273
4095 571 1352
0 0 263
0 0 263
5 0 263
18 3 262
51 0 262
100 0 262
169 0 275
269 0 288
366 0 301
420 0 309
469 0 320
520 0 328
573 0 335
626 0 340
680 0 347
733 0 354
787 0 362
842 0 366
906 0 373
981 0 380
1058 0 388
1136 0 396
1216 0 407
1305 0 416
1396 0 426
1492 0 437
1591 0 448
1692 0 460
1798 0 470
1904 0 481
2011 0 492
2117 0 503
2225 0 513
2331 0 524
2433 0 534
2534 0 545
2633 0 557
2729 0 569
2818 0 581
2905 0 594
2986 0 609
3062 0 624
3132 0 640
3200 0 657
3263 0 676
3325 0 697
3384 0 717
3442 0 740
3498 0 763
3552 0 789
3605 0 815
3657 0 843
3707 0 873
3756 0 903
3802 0 934
3848 0 967
3892 0 1000
3935 0 1033
3978 0 1070
4022 0 1108
4068 0 1153
4095 0 1206
4095 0 1272
4095 555 1351
28 6 275
36 5 275
44 4 275
62 2 271
86 0 270
127 0 270
191 0 275
282 0 288
371 0 300
421 0 313
469 0 326
522 0 331
573 0 338
625 0 348
676 0 356
730 0 361
782 0 367
837 0 371
906 0 378
978 0 386
1052 0 394
1130 0 403
1210 0 413
1296 0 422
1387 0 432
1482 0 443
1580 0 454
1682 0 464
1787 0 476
1893 0 486
1999 0 497
2105 0 508
2213 0 518
2319 0 528
2422 0 539
2525 0 550
2625 0 561
2721 0 573
2812 0 585
2900 0 598
2982 0 613
3059 0 628
3130 0 645
3198 0 662
3262 0 681
3324 0 700
3382 0 721
3440 0 744
3496 0 768
3550 0 792
3602 0 819
3654 0 847
3704 0 876
3752 0 906
3798 0 936
3844 0 968
3888 0 1001
3931 0 1034
3975 0 1070
4019 0 1109
4065 0 1153
4095 0 1206
4095 0 1273
4095 548 1354
87 3 288
92 7 288
100 6 288
116 4 288
142 2 283
176 0 278
224 0 278
317 0 286
376 0 295
423 0 312
473 0 326
523 0 336
574 0 347
625 0 354
674 0 362
727 0 367
781 0 373
837 0 380
906 0 387
975 0 394
1049 0 402
1125 0 411
1204 0 420
1289 0 431
1379 0 441
1472 0 451
1569 0 462
1670 0 472
1774 0 483
1879 0 493
1985 0 503
2092 0 513
2199 0 523
2306 0 534
2409 0 544
2513 0 555
2615 0 567
2713 0 578
2804 0 591
2893 0 604
2977 0 619
3055 0 634
3126 0 650
3195 0 668
3259 0 687
3321 0 706
3379 0 727
3436 0 749
3492 0 773
3546 0 797
3598 0 823
3649 0 850
3699 0 879
3747 0 908
3793 0 939
3839 0 970
3884 0 1002
3927 0 1035
3971 0 1072
4016 0 1112
4063 0 1157
4095 0 1211
4095 0 1279
4095 558 1360
146 10 305
154 9 305
162 8 305
179 6 305
200 8 304
235 5 295
285 0 290
346 0 293
390 0 298
431 0 306
478 0 322
526 0 333
575 0 347
624 0 360
674 0 367
725 0 373
779 0 379
840 0 386
905 0 395
972 0 404
1044 0 411
1118 0 420
1195 0 429
1277 0 439
1365 0 449
1456 0 459
1552 0 469
1651 0 479
1753 0 490
1857 0 499
1962 0 510
2068 0 519
2175 0 529
2282 0 540
2385 0 551
2490 0 561
2592 0 572
2691 0 583
2784 0 595
2874 0 609
2959 0 622
3038 0 638
3110 0 654
3179 0 671
3243 0 689
3304 0 709
3362 0 728
3420 0 750
3475 0 772
3528 0 795
3579 0 819
3630 0 845
3680 0 872
3728 0 900
3774 0 928
3820 0 959
3866 0 990
3910 0 1023
3954 0 1057
3999 0 1094
4043 0 1133
4087 0 1174
4095 0 1217
4095 0 1263
260 10 326
260 10 326
268 9 326
282 12 326
307 9 323
330 10 322
361 5 315
385 3 309
418 0 304
456 0 308
502 0 321
551 0 335
601 0 348
651 0 362
704 0 372
756 0 381
814 0 390
884 0 400
953 0 411
1025 0 421
1101 0 429
1181 0 439
1262 0 448
1350 0 459
1442 0 468
1537 0 479
1635 0 489
1736 0 499
1840 0 509
1944 0 519
2047 0 529
2153 0 539
2259 0 549
2362 0 560
2464 0 570
2564 0 581
2661 0 591
2754 0 603
2840 0 615
2924 0 628
3001 0 642
3074 0 657
3141 0 673
3206 0 690
3267 0 708
3327 0 728
3385 0 749
3443 0 772
3500 0 796
3555 0 823
3608 0 850
3661 0 880
3713 0 911
3763 0 943
3810 0 976
3857 0 1010
3901 0 1045
3945 0 1080
3988 0 1117
4031 0 1155
4075 0 1198
4095 0 1247
4095 0 1307
4095 583 1376
329 14 339
332 18 342
342 17 342
352 15 342
366 16 341
379 12 338
391 9 332
413 6 326
438 0 320
472 0 319
511 0 322
556 0 330
604 0 344
652 0 360
703 0 372
756 0 385
822 0 396
887 0 409
953 0 419
1024 0 429
1095 0 440
1172 0 449
1251 0 458
1337 0 469
1426 0 479
1522 0 489
1618 0 500
1719 0 510
1823 0 519
1927 0 530
2032 0 539
2138 0 549
2244 0 560
2349 0 570
2451 0 580
2552 0 591
2649 0 602
2744 0 613
2831 0 625
2916 0 638
2994 0 653
3067 0 668
3136 0 683
3201 0 700
3263 0 719
3324 0 739
3382 0 759
3440 0 783
3497 0 807
3552 0 833
3605 0 860
3658 0 890
3710 0 920
3759 0 953
3807 0 985
3853 0 1019
3897 0 1053
3941 0 1087
3984 0 1124
4027 0 1162
4071 0 1205
4095 0 1255
4095 0 1314
4095 591 1385
368 19 358
373 22 360
378 20 362
387 18 362
394 20 362
406 16 360
418 16 357
437 10 348
456 8 341
487 0 333
523 0 329
564 0 332
609 0 340
655 0 354
706 0 368
768 0 382
829 0 397
891 0 413
955 0 426
1023 0 437
1094 0 449
1168 0 459
1246 0 470
1330 0 480
1420 0 491
1514 0 502
1610 0 511
1711 0 522
1815 0 532
1920 0 542
2024 0 551
2130 0 562
2236 0 571
2341 0 581
2442 0 592
2543 0 603
2641 0 614
2736 0 625
2824 0 637
2907 0 650
2987 0 665
3061 0 679
3130 0 695
3196 0 712
3259 0 731
3320 0 751
3379 0 772
3437 0 795
3494 0 820
3549 0 845
3602 0 873
3655 0 902
3706 0 932
3756 0 964
3803 0 996
3849 0 1029
3894 0 1063
3937 0 1096
3980 0 1133
4024 0 1170
4068 0 1213
4095 0 1263
4095 0 1324
4095 597 1395
398 27 373
403 25 375
408 23 375
413 26 375
422 27 374
435 23 374
446 23 372
463 17 369
480 14 363
504 4 357
534 0 347
571 0 344
613 0 347
662 0 352
718 0 366
778 0 378
836 0 395
896 0 412
959 0 429
1024 0 444
1093 0 457
1167 0 469
1244 0 480
1328 0 492
1417 0 502
1510 0 514
1607 0 524
1708 0 535
1812 0 545
1917 0 555
2021 0 565
2125 0 575
2231 0 585
2335 0 594
2436 0 605
2537 0 616
2635 0 627
2729 0 638
2817 0 650
2902 0 664
2981 0 678
3056 0 693
3126 0 709
3193 0 726
3256 0 745
3318 0 765
3377 0 786
3435 0 809
3492 0 834
3547 0 860
3600 0 887
3652 0 916
3703 0 946
3752 0 978
3799 0 1009
3845 0 1042
3890 0 1074
3933 0 1107
3976 0 1143
4019 0 1180
4064 0 1223
4095 0 1272
4095 0 1334
4095 602 1406
426 30 388
430 33 389
434 31 389
441 28 390
450 29 390
460 30 392
474 24 390
488 23 388
507 14 383
525 11 376
550 3 370
582 0 363
625 0 361
676 0 362
730 0 367
786 0 378
843 0 392
902 0 409
962 0 427
1027 0 444
1095 0 460
1169 0 475
1245 0 489
1328 0 502
1416 0 513
1510 0 525
1606 0 537
1706 0 548
1811 0 559
1915 0 569
2017 0 579
2123 0 589
2228 0 599
2332 0 609
2432 0 619
2533 0 630
2629 0 641
2724 0 653
2812 0 665
2898 0 679
2978 0 692
3053 0 708
3124 0 725
3191 0 742
3255 0 761
3316 0 782
3376 0 803
3434 0 827
3490 0 851
3545 0 877
3598 0 904
3650 0 932
3700 0 963
3749 0 993
3796 0 1024
3842 0 1056
3886 0 1088
3929 0 1120
3972 0 1155
4015 0 1193
4060 0 1235
4095 0 1285
4095 0 1346
4095 611 1419
453 31 404
459 34 406
463 32 406
469 34 407
476 35 408
487 31 408
500 29 408
517 26 408
534 22 404
550 19 399
572 8 393
604 0 386
644 0 378
690 0 374
740 0 375
795 0 380
851 0 391
908 0 406
968 0 423
1031 0 442
1100 0 460
1172 0 479
1248 0 495
1331 0 510
1419 0 523
1511 0 537
1607 0 549
1706 0 561
1809 0 572
1913 0 584
2016 0 594
2121 0 603
2226 0 614
2328 0 624
2429 0 635
2529 0 646
2627 0 657
2722 0 669
2811 0 682
2896 0 696
2978 0 710
3053 0 726
3124 0 743
3191 0 760
3254 0 780
3316 0 800
3375 0 822
3433 0 845
3489 0 870
3543 0 896
3596 0 922
3647 0 951
3698 0 980
3746 0 1011
3792 0 1040
3838 0 1072
3882 0 1103
3925 0 1135
3968 0 1170
4012 0 1208
4058 0 1249
4095 0 1300
4095 0 1361
4095 629 1434
481 36 420
485 34 421
490 37 422
496 39 424
