dist/LUTS/Anime4.3dl
0 1365 2730 4095
0 0 420
2505 0 143
3761 1433 0
4095 1984 0
0 306 1148
2376 0 735
3817 0 0
4095 1902 0
0 1170 2352
1039 2522 2396
3507 2162 1107
4095 2053 1152
1350 3400 3777
1577 3849 3716
3390 3897 3036
4095 2964 2285
0 2306 2160
0 1879 1875
3597 1094 382
4095 1892 0
0 2219 2279
0 2153 2067
3500 1521 1000
4095 1820 0
0 1457 2682
0 1718 2682
3175 2547 1925
4095 2118 1318
0 2794 3810
1727 3281 3818
3231 3953 3354
4095 3125 2582
0 3383 3571
0 3292 3476
1785 3011 3260
3935 2462 2257
0 3316 3506
0 3292 3491
1848 3108 3281
3936 2555 2295
0 3231 3598
0 3198 3597
1927 3248 3466
4095 2935 2561
0 2950 3978
0 2842 3974
2433 3158 3913
4095 3691 3426
0 3924 4005
0 3927 4004
0 3939 4002
2657 3906 3978
0 3931 4004
0 3933 4003
0 3941 4002
2720 3937 3976
0 3942 4002
0 3942 4002
0 3941 4002
3161 4009 3958
0 3595 4042
0 3566 4045
0 3413 4062
3994 4043 3952
