dist/LUTS/Anime5.3dl
0 65 130 195 260 325 390 455 520 585 650 715 780 845 910 975 1040 1105 1170 1235 1300 1365 1430 1495 1560 1625 1690 1755 1820 1885 1950 2015 2080 2145 2210 2275 2340 2405 2470 2535 2600 2665 2730 2795 2860 2925 2990 3055 3120 3185 3250 3315 3380 3445 3510 3575 3640 3705 3770 3835 3900 3965 4030 4095
0 0 470
0 1 469
0 1 469
0 0 469
0 0 469
0 6 469
0 6 469
0 14 468
46 31 467
129 44 466
209 63 465
302 84 464
376 102 463
427 118 461
476 135 460
531 146 458
589 157 456
649 171 454
716 178 451
789 188 448
870 196 444
957 200 439
1099 197 430
1276 184 416
1457 170 397
1635 165 373
1802 208 332
1960 304 247
2102 395 143
2229 473 30
2332 551 0
2421 630 0
2495 702 0
2560 770 0
2614 828 0
2664 885 0
2709 936 0
2749 984 0
2785 1026 0
2820 1067 0
2853 1106 0
2885 1144 0
2914 1176 0
2946 1212 0
2977 1244 0
3009 1278 0
3042 1311 0
3078 1345 0
3116 1378 0
3155 1411 0
3196 1442 0
3240 1474 0
3285 1503 0
3334 1532 0
3384 1559 0
3436 1584 0
3492 1607 0
3549 1627 0
3612 1646 0
3683 1664 0
3765 1682 0
3867 1701 0
4001 1721 0
4095 1739 0
0 2 469
0 2 469
0 0 469
0 4 469
0 5 469
0 6 469
0 11 469
0 14 468
46 31 467
121 45 466
201 64 465
294 85 464
370 104 463
419 120 461
470 133 460
523 146 458
577 159 456
637 164 454
701 181 451
772 189 448
849 198 445
935 202 440
1072 202 431
1243 188 418
1419 171 401
1593 169 379
1758 193 346
1917 273 274
2064 375 173
2194 451 63
2303 530 0
2397 609 0
2476 683 0
2543 751 0
2600 813 0
2651 870 0
2698 924 0
2739 972 0
2776 1016 0
2812 1058 0
2846 1098 0
2878 1135 0
2909 1171 0
2941 1206 0
2973 1241 0
3006 1275 0
3039 1308 0
3074 1341 0
3112 1374 0
3151 1407 0
3191 1438 0
3234 1470 0
3280 1500 0
3327 1528 0
3375 1554 0
3427 1579 0
3482 1603 0
3537 1622 0
3600 1641 0
3670 1660 0
3752 1679 0
3854 1699 0
3989 1720 0
4095 1738 0
0 2 473
0 2 472
0 1 469
0 0 469
0 5 469
0 6 469
0 12 469
0 19 468
46 31 467
112 46 466
193 65 465
278 87 464
362 102 463
412 118 461
462 132 460
512 146 458
568 155 457
625 167 455
688 176 452
758 187 449
833 199 445
918 206 441
1056 205 432
1222 194 420
1395 177 404
1567 171 383
1734 190 353
1893 260 288
2042 365 189
2174 439 80
2285 517 0
2383 597 0
2463 671 0
2532 740 0
2590 801 0
2642 860 0
2689 914 0
2731 963 0
2768 1007 0
2805 1050 0
2840 1091 0
2873 1129 0
2904 1165 0
2936 1201 0
2969 1237 0
3001 1271 0
3035 1305 0
3070 1338 0
3108 1371 0
3147 1404 0
3186 1435 0
3229 1466 0
3273 1496 0
3320 1524 0
3368 1550 0
3417 1575 0
3470 1598 0
3525 1618 0
3586 1638 0
3656 1656 0
3739 1676 0
3841 1696 0
3979 1718 0
4095 1738 0
0 6 478
0 6 479
0 11 474
0 9 472
0 1 471
0 6 471
0 12 470
0 19 469
43 35 467
110 51 466
182 70 465
270 88 464
354 104 463
404 121 461
453 135 460
505 145 459
558 160 457
617 168 455
676 184 452
745 192 449
820 202 446
904 207 441
1045 210 433
1207 200 421
1379 185 405
1550 174 385
1715 193 358
1877 254 297
2024 360 201
2158 431 94
2272 507 0
2370 586 0
2452 661 0
2522 729 0
2580 791 0
2633 850 0
2681 904 0
2723 954 0
2762 999 0
2799 1043 0
2834 1084 0
2867 1123 0
2899 1160 0
2932 1197 0
2965 1233 0
2998 1268 0
3031 1302 0
3067 1336 0
3104 1369 0
3143 1402 0
3182 1432 0
3223 1463 0
3266 1492 0
3313 1521 0
3358 1546 0
3408 1571 0
3459 1593 0
3512 1614 0
3572 1633 0
3640 1652 0
3724 1673 0
3827 1694 0
3966 1717 0
4095 1737 0
0 15 487
0 15 487
0 19 484
0 18 479
0 15 474
0 6 471
0 7 472
0 20 472
35 31 470
110 51 466
182 70 465
262 89 464
349 105 463
399 123 461
448 137 460
499 148 459
550 160 457
608 173 455
668 186 452
735 196 450
810 207 446
897 210 442
1040 216 433
1200 201 422
1367 189 406
1536 181 386
1701 197 361
1861 253 305
2010 352 211
2144 423 106
2258 497 0
2357 575 0
2440 648 0
2511 719 0
2571 782 0
2625 841 0
2674 896 0
2717 946 0
2756 992 0
2794 1037 0
2829 1079 0
2864 1119 0
2896 1156 0
2930 1195 0
2963 1231 0
2997 1267 0
3030 1301 0
3066 1336 0
3102 1368 0
3140 1400 0
3179 1431 0
3220 1462 0
3263 1490 0
3307 1517 0
3351 1542 0
3400 1568 0
3449 1589 0
3501 1610 0
3560 1630 0
3627 1649 0
3711 1670 0
3815 1693 0
3954 1716 0
4095 1737 0
0 24 499
0 28 500
0 32 500
0 31 487
0 30 483
0 25 477
0 7 475
0 10 475
34 26 474
101 47 470
176 66 465
265 84 464
344 106 463
396 124 461
443 139 460
493 151 459
544 163 457
600 173 455
661 185 453
726 198 450
801 205 447
900 216 441
1041 214 433
1196 208 422
1359 194 407
1526 180 388
1689 191 363
1846 244 313
1995 342 221
2128 414 120
2243 488 13
2344 564 0
2428 638 0
2500 709 0
2562 772 0
2617 833 0
2666 888 0
2711 940 0
2752 987 0
2790 1033 0
2827 1077 0
2862 1117 0
2895 1155 0
2929 1194 0
2962 1230 0
2996 1266 0
3029 1300 0
3064 1335 0
3100 1367 0
3138 1400 0
3174 1429 0
3215 1458 0
3257 1487 0
3300 1514 0
3343 1539 0
3391 1564 0
3439 1586 0
3489 1607 0
3548 1627 0
3617 1648 0
3700 1669 0
3806 1692 0
3948 1716 0
4095 1737 0
0 32 514
0 37 515
0 46 516
0 54 508
0 48 493
0 50 488
0 44 482
0 19 475
36 17 478
106 32 474
177 57 471
262 75 464
345 101 463
394 120 462
442 135 460
489 148 459
542 160 457
597 175 455
656 184 453
722 197 450
794 207 447
908 217 441
1045 214 433
1196 203 422
1356 186 408
1518 174 389
1676 182 366
1831 226 322
1977 327 234
2110 400 136
2226 471 33
2327 548 0
2414 624 0
2488 694 0
2550 759 0
2608 822 0
2659 880 0
2705 933 0
2746 981 0
2786 1028 0
2823 1072 0
2859 1114 0
2893 1153 0
2927 1192 0
2960 1228 0
2993 1263 0
3026 1297 0
3060 1330 0
3096 1364 0
3132 1396 0
3168 1426 0
3208 1455 0
3248 1483 0
3291 1510 0
3333 1535 0
3380 1559 0
3427 1582 0
3479 1604 0
3539 1626 0
3608 1647 0
3692 1669 0
3801 1693 0
3945 1717 0
4095 1739 0
0 55 533
0 55 535
0 63 536
0 76 533
0 75 513
0 67 503
0 68 497
0 61 486
41 34 477
102 32 478
181 42 476
262 65 471
351 86 464
397 105 462
441 126 461
489 139 459
539 151 457
593 164 456
650 179 453
716 187 451
795 197 447
913 207 441
1043 207 433
1188 192 423
1340 178 410
1495 163 393
1649 165 371
1799 195 334
1943 276 260
2075 375 166
2191 442 69
2296 516 0
2385 591 0
2462 664 0
2527 729 0
2587 794 0
2639 853 0
2687 910 0
2730 961 0
2770 1009 0
2809 1056 0
2844 1097 0
2878 1137 0
2911 1175 0
2943 1210 0
2976 1246 0
3007 1279 0
3040 1312 0
3074 1344 0
3107 1374 0
3141 1404 0
3177 1433 0
3214 1460 0
3254 1487 0
3292 1511 0
3335 1536 0
3382 1560 0
3432 1584 0
3484 1606 0
3548 1628 0
3621 1650 0
3700 1669 0
3785 1687 0
3880 1703 0
0 90 572
0 90 572
0 98 573
0 106 572
0 115 553
0 108 526
0 103 517
0 112 507
28 98 495
140 69 478
235 49 478
336 60 473
397 77 466
444 97 462
492 119 460
545 135 458
600 150 456
659 159 454
723 168 451
795 179 448
917 185 442
1064 176 433
1217 161 422
1383 136 407
1549 121 388
1711 121 363
1864 165 315
2008 272 225
2139 386 125
2252 464 20
2347 542 0
2429 619 0
2501 691 0
2563 758 0
2614 818 0
2663 875 0
2708 927 0
2747 975 0
2782 1018 0
2816 1059 0
2849 1099 0
2881 1137 0
2910 1171 0
2941 1207 0
2971 1241 0
3004 1275 0
3037 1309 0
3072 1343 0
3109 1377 0
3148 1411 0
3189 1443 0
3233 1476 0
3278 1507 0
3327 1537 0
3376 1563 0
3428 1587 0
3482 1610 0
3540 1632 0
3601 1652 0
3670 1671 0
3750 1690 0
3848 1708 0
3971 1727 0
4095 1744 0
0 112 594
0 116 599
0 125 602
0 137 605
0 149 598
0 149 563
0 140 540
0 135 530
0 142 518
87 127 501
212 93 481
333 65 476
395 63 472
445 74 465
491 96 461
541 114 459
596 125 457
652 136 455
714 148 452
808 153 448
931 151 442
1069 141 434
1216 116 424
1375 86 410
1533 63 392
1691 55 370
1842 82 331
1986 167 252
2118 324 155
2233 421 52
2330 503 0
2416 586 0
2489 664 0
2553 733 0
2606 795 0
2656 855 0
2700 909 0
2741 961 0
2776 1005 0
2811 1049 0
2845 1089 0
2877 1129 0
2907 1164 0
2939 1201 0
2969 1236 0
3002 1272 0
3035 1307 0
3070 1341 0
3107 1375 0
3146 1409 0
3186 1441 0
3228 1473 0
3273 1504 0
3320 1534 0
3369 1561 0
3421 1586 0
3473 1609 0
3529 1630 0
3590 1650 0
3659 1670 0
3737 1690 0
3837 1710 0
3965 1729 0
4095 1747 0
0 129 622
0 138 627
0 147 632
0 159 633
0 176 633
0 184 614
0 177 569
0 167 554
0 167 542
10 173 530
153 155 507
293 115 485
382 86 472
437 71 470
491 73 463
541 86 460
593 99 458
648 111 456
726 116 453
830 115 449
949 112 443
1083 90 435
1227 58 426
1378 20 413
1535 0 396
1692 0 374
1840 0 341
1982 40 271
2116 192 174
2231 371 73
2328 463 0
2413 552 0
2486 633 0
2549 706 0
2603 772 0
2652 834 0
2696 891 0
2737 943 0
2773 990 0
2808 1035 0
2841 1078 0
2873 1119 0
2904 1156 0
2935 1193 0
2967 1230 0
3000 1266 0
3033 1301 0
3068 1337 0
3104 1372 0
3143 1407 0
3183 1439 0
3225 1471 0
3268 1502 0
3315 1531 0
3363 1559 0
3413 1585 0
3465 1608 0
3519 1628 0
3580 1649 0
3646 1668 0
3726 1689 0
3825 1711 0
3957 1731 0
4095 1749 0
0 150 651
0 159 658
0 168 662
0 181 665
0 197 665
0 213 661
0 223 629
0 209 582
0 199 571
0 198 557
56 207 543
214 184 518
364 135 491
426 103 473
481 82 467
538 74 461
591 77 459
661 84 457
751 82 453
852 75 449
968 58 444
1099 27 437
1239 0 428
1390 0 415
1544 0 399
1698 0 379
1846 0 350
1987 0 288
2119 30 195
2235 237 95
2330 408 0
2414 509 0
2486 595 0
2548 675 0
2602 744 0
2650 808 0
2695 868 0
2734 923 0
2770 972 0
2806 1021 0
2840 1064 0
2872 1106 0
2902 1145 0
2935 1185 0
2966 1223 0
2999 1261 0
3032 1296 0
3067 1332 0
3104 1368 0
3142 1403 0
3180 1436 0
3222 1469 0
3265 1499 0
3310 1528 0
3357 1556 0
3405 1581 0
3455 1605 0
3507 1627 0
3567 1647 0
3633 1667 0
3714 1688 0
3814 1710 0
3944 1734 0
4095 1753 0
0 172 680
0 181 688
0 190 692
0 198 696
0 214 698
0 239 698
0 256 687
0 256 635
0 240 601
0 234 588
0 229 572
107 240 559
299 213 533
404 158 500
467 118 479
529 92 464
606 73 459
687 57 457
775 49 454
876 29 450
992 0 445
1121 0 438
1259 0 429
1406 0 418
1558 0 403
1710 0 384
1855 0 359
1996 0 307
2125 0 218
2240 27 120
2334 291 22
2416 444 0
2487 546 0
2549 631 0
2601 707 0
2650 776 0
2694 840 0
2735 900 0
2770 950 0
2806 1001 0
2840 1048 0
2872 1093 0
2903 1134 0
2936 1175 0
2969 1215 0
3001 1254 0
3034 1292 0
3069 1329 0
3104 1364 0
3142 1399 0
3180 1432 0
3220 1465 0
3262 1497 0
3306 1526 0
3350 1552 0
3399 1579 0
3447 1602 0
3499 1624 0
3556 1646 0
3621 1666 0
3701 1687 0
3803 1710 0
3934 1734 0
4095 1756 0
0 188 712
0 192 720
0 206 725
0 213 728
0 230 731
0 251 733
0 281 732
0 303 713
0 292 651
0 280 625
0 270 609
24 267 592
166 281 576
367 245 549
457 186 517
540 134 489
621 95 470
706 57 456
796 30 454
898 0 450
1014 0 445
1143 0 439
1278 0 431
1425 0 420
1574 0 407
1723 0 389
1867 0 366
2004 0 325
2131 0 245
2244 0 152
2338 26 55
2421 347 0
2490 475 0
2551 575 0
2603 659 0
2652 736 0
2696 806 0
2737 869 0
2773 925 0
2809 980 0
2843 1031 0
2876 1077 0
2907 1121 0
2939 1163 0
2971 1205 0
3003 1246 0
3036 1283 0
3070 1321 0
3106 1359 0
3142 1395 0
3179 1428 0
3220 1461 0
3260 1492 0
3302 1522 0
3346 1550 0
3393 1576 0
3439 1599 0
3490 1621 0
3548 1644 0
3614 1666 0
3693 1688 0
3795 1711 0
3930 1736 0
4092 1758 0
0 209 747
0 213 755
0 221 760
0 229 763
