dist/LUTS/Anime1.3dl
0 1365 2730 4095
0 0 250
1174 0 389
3152 0 638
4095 618 1360
762 54 566
1295 0 522
3145 0 925
4095 775 1598
1703 1286 1242
2094 1778 1390
3192 1836 941
4095 1629 1962
3401 3043 2325
3528 3079 2296
3920 3087 2014
4095 2790 1735
0 1347 2119
0 1099 2089
2537 0 1151
3831 2061 1850
0 1397 1614
0 1483 1754
2520 1118 1470
3847 2056 2014
1560 808 1160
1823 1141 1420
2734 2256 2043
3990 2196 2366
3215 2992 2496
3374 3076 2509
3806 3176 2394
4095 2994 2230
0 2936 3424
0 2960 3353
1082 2764 3226
3788 2006 2648
0 3026 3271
0 3051 3244
1614 2926 3179
3726 2154 2639
0 3027 2872
417 3028 2890
2441 3041 2988
3592 2771 2737
2572 2342 2286
2726 2401 2361
3326 3019 2850
4055 3495 3129
0 3436 4095
0 3456 4095
0 3538 4074
3031 3418 3981
0 3495 4095
0 3510 4092
0 3571 4068
3081 3469 3979
0 3656 4063
0 3658 4065
0 3677 4059
3356 3669 3987
2287 3803 3748
2315 3801 3738
2462 3782 3680
4028 4037 4062
