dist/LUTS/Anime6.3dl
0 585 1170 1755 2340 2925 3510 4095
0 0 250
423 0 239
975 0 187
2482 0 0
3298 0 0
3590 626 0
3909 1057 0
4095 1325 0
20 75 376
439 49 276
972 0 191
2510 0 0
3288 0 0
3583 614 0
3898 1062 0
4095 1331 0
149 313 690
441 533 764
1295 312 405
2700 0 0
3331 0 0
3602 0 0
3903 1023 0
4095 1350 0
0 664 1276
0 1025 1465
1004 1550 903
2606 989 69
3374 0 0
3667 0 0
3956 555 0
4095 1253 0
0 1151 1736
0 1418 1808
1196 2001 1725
2737 2006 1356
3125 1646 0
3692 0 0
4087 0 0
4095 0 0
617 1823 2063
1004 1923 2063
1869 2243 2041
2452 2509 1810
3071 2308 1715
3447 2130 646
4095 736 0
4095 0 0
2064 2555 2586
2107 2586 2565
2275 2801 2579
2443 3136 2455
3120 3124 2089
3462 2754 2046
4038 2657 1142
4095 1601 544
1606 3672 3689
1640 3725 3689
1840 3880 3627
2348 4004 3320
3021 3955 2763
3632 3913 2557
4079 3753 1872
4095 3192 1263
0 189 452
183 77 443
862 0 251
2337 0 0
3201 0 0
3525 458 0
3846 1011 0
4095 1299 0
0 242 513
335 213 500
961 0 381
2389 0 0
3217 0 0
3535 431 0
3851 1018 0
4095 1317 0
0 365 825
377 392 875
1135 509 643
2568 0 286
3267 0 0
3571 0 0
3873 957 0
4095 1336 0
0 540 1333
0 721 1492
1091 1463 1352
2465 1123 551
3310 0 148
3651 0 0
3936 299 0
4095 1234 0
0 979 1770
0 1226 1853
1288 1791 1799
2513 2063 1349
3064 1712 483
3656 0 148
4071 0 0
4095 0 0
819 1707 2090
1236 1848 2111
1958 2173 2094
2480 2527 1955
3071 2354 1772
3409 2174 895
4089 982 227
4095 0 0
2080 2506 2623
2144 2563 2638
2296 2774 2651
2443 3139 2566
3010 3156 2084
3465 2793 2095
4013 2687 1252
4095 1678 667
1632 3623 3724
1668 3696 3745
1847 3862 3688
2334 4006 3418
3007 3963 2818
3619 3925 2621
4076 3762 1921
4095 3216 1317
0 1293 1332
0 1221 1283
37 645 1191
2024 0 685
3096 0 0
3498 0 0
3838 955 0
4095 1334 0
0 1406 1429
0 1467 1461
0 1093 1279
2009 0 757
3100 0 0
3505 0 0
3846 928 0
4095 1338 0
0 1511 1651
0 1646 1708
0 1470 1431
2023 425 981
3100 0 268
3546 0 0
3875 723 0
4095 1314 0
0 1193 1735
0 1358 1830
482 1326 1667
2061 1300 1334
3099 116 790
3557 0 126
3964 0 0
4095 945 0
0 1040 1905
0 1189 1970
1234 1312 1899
2226 1782 1774
2840 1799 1459
3502 1011 928
3998 0 11
4095 0 0
834 1407 2157
1267 1546 2185
1923 1797 2151
2476 2234 2102
2911 2481 1827
3279 2286 1522
3956 1617 1078
4095 0 0
2013 2236 2648
2111 2299 2671
2321 2490 2686
2493 2898 2717
2762 3218 2260
3477 2961 2259
3934 2790 1560
4095 1976 1219
1750 3316 3762
1766 3398 3787
1847 3630 3766
2210 3944 3660
2924 3993 3055
3568 3959 2850
4053 3812 2107
4095 3309 1508
0 2465 2189
0 2437 2163
0 2357 2063
1090 1551 1889
2869 0 1271
3418 0 678
3806 591 0
4095 1291 0
0 2444 2177
0 2469 2205
0 2368 2066
1202 1796 1889
2876 0 1327
3410 0 728
3800 658 0
4095 1280 0
0 2363 2170
0 2437 2223
0 2362 2074
1621 2138 1877
2880 536 1538
3365 0 910
3789 925 0
4095 1170 0
0 2215 2180
0 2316 2246
0 2287 2116
1866 2203 1923
2723 1598 1741
3271 1391 1161
3773 1273 177
4095 659 0
0 2002 2211
0 2107 2267
0 2122 2178
2027 2124 2033
2657 2095 1840
3170 1956 1571
3749 1670 1116
4095 794 0
0 1816 2360
0 1903 2395
1445 1953 2328
2343 2048 2223
2788 2245 2126
3103 2398 1969
3766 2095 1646
4095 1596 1089
1472 1963 2780
1724 2030 2804
2176 2169 2776
2543 2422 2762
2728 2985 2815
3434 3276 2541
3798 2923 1946
4095 2259 1642
1778 2731 3765
1835 2797 3792
1978 3014 3794
2141 3521 3806
2704 4008 3681
3469 3999 3174
3939 3900 2468
4095 3466 1818
0 2926 2756
0 2898 2716
0 2802 2579
620 2643 2372
2210 2070 2191
3282 941 1923
3541 1331 1506
4095 1233 411
0 2870 2681
0 2905 2731
0 2799 2574
863 2649 2370
2252 2165 2201
3263 1101 1940
3526 1383 1522
4095 1290 427
0 2817 2644
0 2863 2711
0 2782 2565
1334 2665 2374
2368 2412 2224
3198 1537 1998
3497 1599 1596
4095 1503 472
0 2716 2622
0 2785 2700
0 2739 2568
1684 2672 2403
2452 2578 2260
3110 1936 2084
3483 1837 1664
4095 1785 621
0 2614 2642
0 2676 2710
0 2658 2606
1883 2648 2476
2499 2645 2347
2929 2309 2148
3499 2092 1675
4095 1981 1054
0 2509 2789
0 2546 2826
681 2554 2759
1978 2583 2667
2553 2627 2542
2962 2628 2318
3530 2444 1963
4095 2184 1597
0 2261 3152
0 2294 3169
827 2340 3116
2122 2434 3053
2685 2597 2991
3036 3045 2932
3550 3038 2516
4095 2579 2035
1285 2355 3842
1322 2366 3854
1378 2382 3851
2105 2712 3861
2540 3442 3887
3233 4047 3728
3772 3985 3185
4095 3683 2339
0 3287 3258
0 3272 3239
0 3218 3167
0 3164 3058
1821 3074 2945
2576 2490 2738
3486 1836 2383
3859 2027 2043
0 3258 3219
0 3277 3246
0 3217 3167
0 3172 3065
1833 3088 2951
2571 2537 2746
3475 1863 2386
3861 2046 2050
0 3237 3206
0 3268 3248
0 3216 3183
0 3194 3091
1868 3137 2978
2553 2730 2795
3457 1987 2429
3875 2114 2075
0 3199 3211
0 3239 3267
0 3201 3217
663 3214 3136
1902 3202 3030
2532 2992 2866
3435 2169 2511
3952 2202 2087
0 3139 3265
0 3171 3313
0 3169 3275
945 3214 3220
1896 3257 3132
2519 3194 2960
3413 2388 2615
4095 2284 2014
0 3058 3402
0 3089 3435
0 3120 3408
1195 3184 3371
1924 3268 3304
2535 3317 3131
3339 2725 2727
4095 2655 1944
0 2994 3705
0 3006 3730
0 2991 3723
954 3056 3691
1909 3137 3619
2650 3252 3425
3317 3287 3056
4095 3134 2608
406 2828 4095
513 2823 4095
695 2769 4095
976 2662 4083
1967 2729 4036
2967 3474 3958
3697 4044 3785
4095 3918 3151
0 3756 3878
0 3753 3874
0 3740 3856
0 3711 3818
0 3691 3745
1714 3590 3653
2701 2897 3490
3982 2320 3290
0 3749 3868
0 3768 3893
0 3748 3866
0 3719 3829
0 3696 3747
1715 3599 3654
2694 2931 3497
3983 2343 3306
0 3758 3882
0 3777 3906
0 3759 3885
0 3729 3847
0 3714 3762
1722 3641 3667
2667 3080 3535
3976 2420 3346
0 3761 3900
0 3784 3929
0 3768 3911
0 3740 3880
0 3744 3801
1729 3709 3703
2631 3349 3604
3973 2562 3411
0 3756 3939
0 3775 3963
0 3764 3951
0 3745 3933
0 3767 3867
1724 3783 3769
2654 3635 3682
3979 2782 3487
0 3723 4002
0 3737 4019
0 3731 4016
0 3715 4006
0 3755 3958
1706 3834 3872
2780 3838 3775
3994 3118 3547
0 3641 4095
0 3652 4095
0 3640 4095
0 3613 4095
0 3673 4066
1854 3806 4001
2993 3930 3905
3930 3627 3515
0 3473 4095
0 3469 4095
0 3452 4095
0 3412 4095
0 3335 4095
1693 3403 4095
3417 3849 4054
4017 4063 3937
0 3972 4095
0 3972 4095
0 3972 4095
0 3972 4095
0 3972 4095
1166 4002 4095
2520 3963 4095
3217 3538 4079
0 3972 4095
0 3972 4095
0 3972 4095
0 3972 4095
0 3974 4095
1161 4003 4095
2523 3967 4095
3219 3550 4080
0 3972 4095
0 3972 4095
0 3974 4095
0 3974 4095
0 3974 4095
1142 4007 4095
2553 3983 4095
3242 3611 4083
0 3974 4095
0 3975 4095
0 3973 4095
0 3973 4095
0 3973 4095
1005 4012 4095
2607 4006 4088
3295 3712 4086
0 3970 4095
0 3970 4095
0 3970 4095
0 3970 4095
0 3970 4095
0 4008 4095
2675 4032 4080
3402 3837 4080
0 3953 4095
0 3954 4095
0 3954 4095
0 3955 4095
0 3957 4095
0 3971 4095
2709 4050 4075
3587 3961 4076
0 3883 4095
0 3882 4095
0 3883 4095
0 3884 4095
0 3886 4095
0 3892 4095
2482 4039 4082
3854 4058 4072
0 3295 4095
0 3290 4095
0 3269 4095
338 3226 4095
731 3154 4095
1032 3051 4095
2426 3444 4095
4069 4082 4077
