dist/LUTS/Anime6.3dl
0 65 130 195 260 325 390 455 520 585 650 715 780 845 910 975 1040 1105 1170 1235 1300 1365 1430 1495 1560 1625 1690 1755 1820 1885 1950 2015 2080 2145 2210 2275 2340 2405 2470 2535 2600 2665 2730 2795 2860 2925 2990 3055 3120 3185 3250 3315 3380 3445 3510 3575 3640 3705 3770 3835 3900 3965 4030 4095
0 0 250
0 0 250
0 0 250
0 0 250
41 0 249
103 0 248
182 0 247
279 0 245
372 0 242
423 0 239
471 0 235
522 0 231
574 0 226
630 0 222
689 0 217
752 0 211
820 0 204
894 0 196
975 0 187
1066 0 175
1165 0 161
1273 0 144
1449 0 114
1667 0 68
1887 0 12
2101 0 0
2299 0 0
2482 0 0
2645 0 0
2787 0 0
2900 0 0
2996 0 0
3076 0 0
3145 0 0
3201 0 0
3253 0 0
3298 0 0
3339 0 0
3375 0 0
3409 0 0
3442 0 0
3473 149 0
3501 381 0
3531 481 0
3560 557 0
3590 626 0
3620 686 0
3652 743 0
3686 797 0
3720 848 0
3755 895 0
3792 940 0
3830 981 0
3870 1021 0
3909 1057 0
3951 1091 0
3995 1122 0
4038 1148 0
4085 1174 0
4095 1199 0
4095 1226 0
4095 1256 0
4095 1289 0
4095 1325 0
0 0 250
0 3 250
0 0 250
0 0 250
41 0 249
103 0 248
182 0 247
287 0 245
369 0 242
422 0 238
468 0 235
518 0 231
568 0 227
623 0 222
681 0 217
742 0 212
807 0 205
880 0 198
958 0 189
1044 0 178
1140 0 165
1245 0 148
1415 0 120
1627 0 77
1841 0 24
2051 0 0
2247 0 0
2433 0 0
2602 0 0
2748 0 0
2868 0 0
2970 0 0
3056 0 0
3126 0 0
3186 0 0
3240 0 0
3287 0 0
3329 0 0
3366 0 0
3402 0 0
3435 0 0
3466 74 0
3497 362 0
3526 467 0
3556 549 0
3587 619 0
3617 681 0
3649 738 0
3682 792 0
3716 843 0
3751 888 0
3787 934 0
3826 977 0
3864 1015 0
3903 1051 0
3944 1085 0
3986 1116 0
4028 1142 0
4076 1168 0
4095 1194 0
4095 1222 0
4095 1251 0
4095 1286 0
4095 1323 0
0 3 254
0 2 250
0 0 250
0 0 250
41 0 249
103 0 248
171 0 246
279 0 245
369 0 242
417 0 238
464 0 235
512 1 231
561 0 227
615 0 222
672 0 218
731 0 213
797 0 206
865 0 199
942 0 191
1027 0 180
1121 0 167
1225 0 151
1395 0 123
1601 0 82
1811 0 32
2021 0 0
2219 0 0
2406 0 0
2576 0 0
2726 0 0
2849 0 0
2956 0 0
3042 0 0
3115 0 0
3176 0 0
3230 0 0
3278 0 0
3321 0 0
3358 0 0
3395 0 0
3429 0 0
3461 22 0
3491 328 0
3521 453 0
3553 540 0
3583 612 0
3614 675 0
3645 732 0
3679 787 0
3713 838 0
3747 884 0
3783 929 0
3820 970 0
3858 1010 0
3897 1045 0
3936 1079 0
3977 1110 0
4019 1136 0
4066 1163 0
4095 1189 0
4095 1217 0
4095 1248 0
4095 1284 0
4095 1321 0
0 2 259
0 6 258
0 5 254
0 1 249
33 0 249
95 0 248
171 0 246
279 0 245
365 0 242
414 0 238
462 0 235
508 3 231
555 3 227
608 0 223
663 0 218
721 0 213
785 0 207
855 0 200
929 0 191
1012 0 181
1104 0 169
1207 0 154
1382 0 125
1582 0 86
1792 0 37
2000 0 0
2197 0 0
2386 0 0
2557 0 0
2708 0 0
2834 0 0
2942 0 0
3030 0 0
3104 0 0
3165 0 0
3221 0 0
3270 0 0
3313 0 0
3352 0 0
3389 0 0
3423 0 0
3456 0 0
3487 291 0
3518 444 0
3549 532 0
3580 607 0
3610 670 0
3643 729 0
3675 783 0
3709 834 0
3743 880 0
3778 924 0
3814 965 0
3852 1005 0
3889 1040 0
3929 1073 0
3968 1103 0
4009 1130 0
4055 1157 0
4095 1183 0
4095 1212 0
4095 1244 0
4095 1281 0
4095 1319 0
0 10 272
0 10 272
0 14 266
0 11 257
34 6 252
95 0 248
173 0 252
278 0 249
365 0 242
414 0 238
459 1 235
502 5 232
553 4 227
602 0 223
657 0 218
714 0 213
776 0 207
845 0 201
918 0 192
1000 0 183
1091 0 170
1200 0 155
1376 0 125
1574 0 88
1778 0 39
1984 0 0
2181 0 0
2368 0 0
2540 0 0
2692 0 0
2819 0 0
2928 0 0
3017 0 0
3093 0 0
3156 0 0
3212 0 0
3263 0 0
3307 0 0
3345 0 0
3384 0 0
3419 0 0
3453 0 0
3484 260 0
3516 437 0
3547 527 0
3578 604 0
3609 668 0
3642 729 0
3674 783 0
3707 832 0
3740 878 0
3776 922 0
3811 963 0
3848 1001 0
3884 1035 0
3923 1069 0
3960 1098 0
4001 1126 0
4046 1152 0
4095 1179 0
4095 1209 0
4095 1241 0
4095 1279 0
4095 1318 0
0 14 285
0 18 284
0 21 288
0 19 270
22 20 264
100 7 255
173 0 252
281 0 250
366 0 247
412 0 244
457 2 235
502 5 232
549 5 228
599 1 223
650 0 218
708 0 213
770 0 208
837 0 201
910 0 193
990 0 183
1081 0 171
1204 0 153
1377 0 125
1569 0 88
1769 0 41
1971 0 0
2166 0 0
2351 0 0
2523 0 0
2674 0 0
2803 0 0
2913 0 0
3004 0 0
3081 0 0
3146 0 0
3205 0 0
3255 0 0
3301 0 0
3341 0 0
3380 0 0
3417 0 0
3451 0 0
3483 251 0
3515 435 0
3546 526 0
3578 602 0
3608 666 0
3640 728 0
3672 781 0
3705 831 0
3737 875 0
3771 918 0
3806 959 0
3842 997 0
3877 1030 0
3915 1064 0
3953 1094 0
3992 1122 0
4037 1149 0
4089 1177 0
4095 1206 0
4095 1240 0
4095 1279 0
4095 1319 0
0 26 306
0 25 306
0 32 310
4 35 295
37 28 277
85 27 267
184 16 262
285 0 254
367 0 253
414 0 250
456 0 241
502 0 233
548 1 228
596 2 223
649 0 219
704 0 214
765 0 208
832 0 201
903 0 194
984 0 184
1074 0 172
1213 0 152
1383 0 124
1569 0 88
1764 0 43
1961 0 0
2150 0 0
2333 0 0
2503 0 0
2654 0 0
2783 0 0
2895 0 0
2989 0 0
3068 0 0
3134 0 0
3195 0 0
3247 0 0
3294 0 0
3336 0 0
3376 0 0
3413 0 0
3448 0 0
3481 229 0
3513 428 0
3544 522 0
3575 597 0
3605 662 0
3636 720 0
3668 776 0
3700 825 0
3731 871 0
3765 914 0
3799 953 0
3835 991 0
3869 1024 0
3907 1058 0
3944 1088 0
3984 1117 0
4030 1147 0
4082 1176 0
4095 1206 0
4095 1241 0
4095 1281 0
4095 1321 0
0 36 327
0 41 330
4 43 329
24 50 326
47 48 302
100 43 287
173 40 277
290 27 263
370 0 251
413 0 254
460 0 247
503 0 239
548 0 229
596 0 225
648 0 220
703 0 215
762 0 209
827 0 203
897 0 195
976 0 186
1074 0 173
1219 0 152
1380 0 126
1559 0 91
1745 0 49
1933 0 0
2118 0 0
2296 0 0
2463 0 0
2614 0 0
2745 0 0
2861 0 0
2958 0 0
3040 0 0
3109 0 0
3172 0 0
3226 0 0
3276 0 0
3320 0 0
3360 0 0
3399 0 0
3433 0 0
3467 87 0
3498 375 0
3529 478 0
3559 561 0
3588 627 0
3618 687 0
3649 743 0
3678 793 0
3708 838 0
3739 883 0
3770 921 0
3804 959 0
3836 992 0
3870 1026 0
3908 1059 0
3948 1091 0
3988 1120 0
4037 1150 0
4092 1180 0
4095 1207 0
4095 1233 0
4095 1258 0
6 64 363
6 64 363
26 66 364
54 72 362
75 75 346
135 70 320
212 62 306
315 60 290
394 38 271
442 7 250
489 0 249
540 0 242
594 0 228
647 0 223
704 0 217
767 0 211
833 0 204
905 0 196
984 0 187
1071 0 175
1222 0 154
1404 0 124
1594 0 87
1796 0 40
1997 0 0
2191 0 0
2371 0 0
2537 0 0
2685 0 0
2811 0 0
2915 0 0
3005 0 0
3081 0 0
3146 0 0
3201 0 0
3251 0 0
3297 0 0
3337 0 0
3372 0 0
3406 0 0
3438 0 0
3469 86 0
3497 363 0
3526 470 0
3555 551 0
3585 620 0
3615 683 0
3647 742 0
3680 797 0
3714 849 0
3749 897 0
3786 944 0
3824 987 0
3864 1028 0
3904 1064 0
3944 1096 0
3986 1127 0
4031 1156 0
4077 1183 0
4095 1210 0
4095 1236 0
4095 1264 0
4095 1295 0
4095 1327 0
20 75 376
30 78 381
39 86 382
64 92 383
110 97 379
142 95 355
233 86 332
311 78 320
380 73 304
439 49 276
487 12 250
539 0 246
591 0 238
646 0 225
702 0 220
762 0 213
827 0 207
896 0 199
972 0 191
1087 0 176
1238 0 155
1410 0 127
1591 0 92
1785 0 48
1977 0 0
2167 0 0
2344 0 0
2510 0 0
2661 0 0
2790 0 0
2897 0 0
2989 0 0
3068 0 0
3135 0 0
3192 0 0
3243 0 0
3288 0 0
3331 0 0
3366 0 0
3401 0 0
3433 0 0
3465 10 0
3494 321 0
3524 452 0
3553 538 0
3583 614 0
3613 679 0
3645 739 0
3678 794 0
3712 846 0
3747 894 0
3783 940 0
3820 983 0
3858 1024 0
3898 1062 0
3939 1095 0
3980 1125 0
4022 1153 0
4069 1180 0
4095 1208 0
4095 1236 0
4095 1265 0
4095 1297 0
4095 1331 0
34 90 395
37 94 398
53 101 400
87 106 402
127 116 401
163 122 388
228 113 358
324 98 344
369 93 332
418 92 318
479 60 286
531 18 255
584 0 237
641 0 235
698 0 222
758 0 216
821 0 210
888 0 203
984 0 193
1112 0 177
1260 0 156
1426 0 129
1602 0 96
1788 0 55
1978 0 4
2165 0 0
2340 0 0
2505 0 0
2657 0 0
2786 0 0
2893 0 0
2986 0 0
3064 0 0
3131 0 0
3187 0 0
3239 0 0
3284 0 0
3325 0 0
3362 0 0
3397 0 0
3430 0 0
3461 0 0
3491 246 0
3521 427 0
3551 523 0
3582 601 0
3611 667 0
3643 731 0
3676 788 0
3710 843 0
3744 891 0
3780 937 0
3816 980 0
3855 1021 0
3893 1059 0
3933 1094 0
3974 1124 0
4015 1151 0
4061 1179 0
4095 1205 0
4095 1234 0
4095 1266 0
4095 1300 0
4095 1333 0
57 104 412
58 108 417
74 115 419
99 121 422
147 130 421
188 139 419
224 146 397
318 129 366
373 118 358
407 108 344
457 104 330
521 72 295
575 22 260
631 0 237
689 0 226
753 0 218
818 0 212
904 0 204
1013 0 193
1138 0 178
1282 0 158
1443 0 132
1615 0 100
1800 0 60
1987 0 11
2171 0 0
2345 0 0
2509 0 0
2659 0 0
2788 0 0
2894 0 0
2985 0 0
3062 0 0
3129 0 0
3185 0 0
3236 0 0
3282 0 0
3322 0 0
3359 0 0
3395 0 0
3428 0 0
3460 0 0
3489 127 0
3520 401 0
3550 506 0
3580 589 0
3610 657 0
3642 722 0
3676 782 0
3709 837 0
3742 887 0
3777 934 0
3813 977 0
3851 1017 0
3888 1054 0
3927 1088 0
3965 1120 0
4006 1149 0
4052 1177 0
4095 1203 0
4095 1233 0
4095 1265 0
4095 1302 0
4095 1337 0
72 114 432
77 122 437
96 124 440
113 131 441
151 141 443
202 158 442
256 166 434
301 165 401
372 149 378
407 134 369
441 127 358
499 117 342
565 81 317
623 22 269
681 0 241
746 0 222
834 0 212
932 0 204
1040 0 193
1165 0 178
1307 0 159
1467 0 135
1637 0 105
1818 0 65
2001 0 19
2182 0 0
2354 0 0
2516 0 0
2664 0 0
2793 0 0
2896 0 0
2986 0 0
3062 0 0
3128 0 0
3183 0 0
3234 0 0
3280 0 0
3322 0 0
3357 0 0
3394 0 0
3427 0 0
3459 0 0
3490 12 0
3520 360 0
3551 480 0
3582 572 0
3612 648 0
3643 716 0
3676 775 0
3709 830 0
3742 880 0
3776 928 0
3811 974 0
3847 1015 0
3883 1050 0
3922 1085 0
3960 1116 0
3999 1145 0
4043 1175 0
4092 1202 0
4095 1232 0
4095 1265 0
4095 1302 0
4095 1341 0
89 128 453
99 131 457
108 134 461
133 140 463
172 150 463
216 163 464
280 183 463
325 198 450
362 190 410
411 172 392
442 157 383
478 143 371
539 139 358
613 89 329
687 19 290
768 0 248
857 0 221
955 0 201
1065 0 191
1190 0 178
1334 0 160
1493 0 137
1659 0 108
1839 0 71
2018 0 26
2196 0 0
2365 0 0
2524 0 0
2668 0 0
2794 0 0
2898 0 0
2988 0 0
3063 0 0
3128 0 0
3184 0 0
3235 0 0
3281 0 0
3322 0 0
3359 0 0
3396 0 0
3430 0 0
3462 0 0
3492 0 0
3523 254 0
3553 450 0
3584 550 0
3613 629 0
3645 700 0
3676 765 0
3709 823 0
3741 873 0
3775 921 0
3809 966 0
3844 1008 0
3879 1047 0
3917 1081 0
3954 1111 0
3993 1141 0
4037 1172 0
4087 1203 0
4095 1233 0
4095 1266 0
4095 1305 0
4095 1344 0
116 136 474
116 140 480
130 147 483
148 154 484
