dist/LUTS/Anime4.3dl
0 585 1170 1755 2340 2925 3510 4095
0 0 420
500 0 414
1628 0 366
3344 0 0
3643 1102 0
3826 1568 0
4095 1897 0
4095 1984 0
0 63 557
490 19 461
1728 0 367
3330 0 0
3642 965 0
3824 1515 0
4095 1874 0
4095 1973 0
0 222 982
0 487 1101
1808 0 678
3327 0 383
3680 0 0
3847 1278 0
4095 1742 0
4095 1926 0
0 478 1520
0 744 1686
664 1801 1133
3110 799 785
3651 0 642
3898 0 0
4095 1388 0
4095 1842 0
0 787 1968
0 1055 2103
0 2146 2080
2819 2336 1434
3391 1713 898
3809 1043 885
4095 1364 682
4095 1862 461
0 1454 2536
0 1640 2549
0 2336 2566
2292 2781 2138
3099 2619 1660
3582 2315 1220
4077 2019 1238
4095 2115 1318
0 2492 3139
0 2554 3124
1599 2824 3150
2173 3264 3053
3141 3255 2808
3398 2951 2307
4091 2702 1775
4095 2423 1833
1350 3400 3777
1392 3476 3777
1488 3741 3745
1953 3969 3536
2892 3925 3198
3591 3865 2803
4095 3658 2253
4095 2964 2285
0 229 716
0 169 700
1316 0 486
3206 0 0
3593 718 0
3776 1407 0
4062 1835 0
4095 1976 0
0 315 814
0 274 794
1365 0 658
3203 0 0
3604 485 0
3787 1365 0
4066 1817 0
4095 1960 0
0 392 1160
0 407 1230
1453 544 967
3169 0 716
3640 0 0
3820 1088 0
4095 1649 0
4095 1908 0
0 474 1586
0 570 1729
469 1593 1637
2958 1124 976
3581 0 821
3869 0 253
4095 1315 0
4095 1830 0
0 698 2030
0 879 2182
0 1704 2167
2793 2371 1639
3324 1831 1041
3754 1273 1018
4095 1334 712
4095 1873 557
0 1280 2575
0 1487 2622
0 2169 2631
2268 2798 2466
3080 2614 1950
3541 2374 1340
4036 2099 1339
4095 2136 1356
0 2394 3170
0 2487 3181
1591 2766 3199
2161 3246 3162
3067 3285 2796
3383 2967 2435
4065 2731 1858
4095 2437 1851
1377 3322 3794
1436 3415 3805
1520 3692 3777
1928 3970 3605
2833 3935 3224
3567 3878 2869
4095 3672 2308
4095 2986 2329
0 1529 1629
0 1464 1597
0 1247 1554
2583 0 1062
3464 370 445
3769 985 0
4041 1699 0
4095 1919 0
0 1719 1722
0 1722 1732
0 1513 1607
2517 0 1148
3453 539 566
3774 950 0
4057 1628 0
4095 1908 0
0 1858 1957
0 1913 2038
0 1748 1776
2366 689 1363
3395 937 890
3761 977 147
4095 1369 0
4095 1866 0
0 1457 2058
0 1631 2234
0 1556 2054
2163 1559 1638
3286 1405 1308
3684 1361 973
4095 1320 0
4095 1798 0
0 1195 2328
0 1305 2451
0 1326 2364
1962 1880 2182
3046 2219 1520
3531 1964 1471
4002 1841 1130
4095 1903 781
0 1146 2697
0 1259 2752
0 1566 2723
2050 2339 2664
2969 2758 2372
3381 2562 1799
3901 2355 1752
4095 2164 1419
0 1867 3214
0 2003 3228
754 2389 3223
2181 2902 3259
2598 3339 2778
3308 3045 2773
3969 2843 2156
4095 2552 2125
1025 2961 3806
1332 3038 3820
1635 3325 3815
1811 3849 3754
2634 3954 3338
3455 3915 3097
4095 3725 2529
4095 3077 2498
0 2823 2827
0 2802 2791
0 2711 2656
0 2452 2398
3152 0 1635
3548 1322 1102
3894 1877 361
4095 1825 0
0 2813 2807
0 2837 2845
0 2711 2668
0 2503 2404
3147 0 1686
3526 1434 1151
3882 1898 495
4095 1819 0
0 2769 2784
0 2813 2861
0 2676 2697
0 2579 2433
3096 951 1929
3432 1785 1322
3851 2003 822
4095 1804 0
0 2641 2779
0 2702 2884
0 2589 2763
0 2573 2532
2583 2040 2174
3289 2202 1604
3808 2171 1209
4095 1892 138
0 2393 2824
0 2449 2915
0 2422 2845
0 2461 2682
2523 2452 2380
3180 2442 2088
3739 2390 1746
4095 2143 1189
0 2093 3011
0 2133 3066
0 2139 3019
0 2255 2897
2604 2476 2741
3099 2736 2435
3687 2610 2306
4095 2432 1909
0 1693 3352
0 1712 3374
0 1927 3350
1768 2402 3305
2486 3004 3341
3219 3361 3142
3780 3036 2554
4095 2743 2505
0 2501 3827
0 2535 3839
0 2679 3830
1927 3189 3833
2321 3964 3754
3335 3966 3441
3920 3760 2945
4095 3247 2787
0 3202 3379
0 3181 3352
0 3106 3252
0 2987 3086
842 2780 2902
3320 1451 2532
3559 2091 1850
4095 2455 1355
0 3162 3327
0 3191 3362
0 3103 3249
0 2987 3089
1017 2802 2911
3291 1572 2557
3544 2115 1869
4095 2467 1376
0 3131 3294
0 3169 3344
0 3086 3244
0 2985 3108
1349 2859 2936
3182 1936 2646
3500 2237 1976
4095 2507 1460
0 3070 3270
0 3113 3333
0 3040 3255
0 2967 3146
1574 2903 2990
2895 2322 2760
3460 2414 2108
4095 2546 1592
0 2982 3290
0 3016 3348
0 2954 3293
0 2921 3215
1698 2913 3091
2720 2780 2858
3428 2652 2264
4095 2578 1860
0 2885 3402
0 2899 3433
0 2846 3405
0 2828 3358
1817 2860 3251
2718 2912 3042
3399 2850 2711
4095 2716 2398
0 2724 3604
0 2722 3619
0 2642 3601
0 2569 3572
2100 2726 3494
2768 3111 3429
3447 3294 3005
4095 3037 2943
0 2499 3887
0 2500 3893
0 2466 3889
0 2471 3893
2251 3110 3880
2985 4016 3754
3715 3942 3319
4095 3498 3163
0 3474 3654
0 3463 3644
0 3427 3609
0 3380 3564
0 3319 3504
1867 3142 3410
3303 2261 3160
3735 2554 2677
0 3454 3635
0 3469 3647
0 3428 3609
0 3385 3569
0 3323 3508
1868 3158 3410
3285 2283 3166
3734 2566 2685
0 3447 3625
0 3470 3646
0 3433 3615
0 3392 3583
0 3332 3523
1873 3221 3422
3215 2388 3214
3744 2612 2719
0 3431 3625
0 3458 3650
0 3429 3630
0 3390 3608
0 3342 3553
1877 3303 3451
3086 2548 3280
3807 2686 2740
0 3403 3649
0 3425 3671
0 3403 3661
0 3370 3651
0 3341 3609
1885 3377 3505
2994 2746 3325
3951 2826 2717
0 3359 3714
0 3373 3729
0 3354 3726
0 3316 3725
0 3302 3691
1920 3413 3597
2936 3071 3363
4095 3133 2858
0 3330 3846
0 3339 3859
0 3312 3858
0 3249 3859
0 3146 3837
2084 3305 3730
2985 3454 3531
4071 3435 3360
0 3205 4020
0 3198 4024
0 3139 4023
0 3010 4017
0 2794 4000
2509 3237 3929
3602 4006 3784
4095 3787 3552
0 3789 3903
0 3786 3901
0 3780 3894
0 3765 3879
0 3732 3852
0 3694 3804
1915 3567 3769
3536 2731 3748
0 3786 3899
0 3798 3908
0 3786 3897
0 3768 3881
0 3733 3853
0 3695 3804
1911 3580 3769
3529 2749 3754
0 3796 3902
0 3810 3912
0 3799 3903
0 3781 3888
0 3741 3860
0 3708 3812
1906 3632 3773
3499 2815 3768
0 3808 3908
0 3823 3919
0 3812 3911
0 3793 3899
0 3754 3875
0 3728 3830
1915 3706 3783
3484 2931 3784
0 3817 3922
0 3829 3930
0 3821 3926
0 3807 3919
0 3771 3902
0 3745 3862
1960 3788 3805
3545 3107 3798
0 3810 3947
0 3819 3954
0 3815 3954
0 3801 3950
0 3768 3940
0 3738 3916
2078 3858 3840
3740 3349 3787
0 3777 3993
0 3784 3999
0 3774 3998
0 3753 3998
0 3708 3995
0 3653 3986
2301 3885 3901
3773 3723 3723
0 3688 4032
0 3685 4032
0 3672 4034
0 3641 4037
0 3576 4044
0 3409 4062
2916 3767 3968
3980 4023 3872
0 3924 4005
0 3924 4004
0 3926 4004
0 3930 4004
0 3935 4003
0 3940 4002
748 3975 3993
2657 3906 3978
0 3925 4004
0 3925 4004
0 3927 4004
0 3931 4004
0 3936 4003
0 3941 4002
743 3976 3993
2662 3911 3978
0 3929 4004
0 3929 4004
0 3931 4004
0 3934 4003
0 3937 4003
0 3941 4002
740 3978 3993
2708 3930 3977
0 3935 4003
0 3935 4003
0 3936 4003
0 3938 4003
0 3940 4002
0 3942 4002
673 3982 3993
2813 3960 3973
0 3941 4002
0 3941 4002
0 3941 4002
0 3941 4002
0 3942 4002
0 3942 4002
330 3978 3993
2982 3991 3965
0 3941 4002
0 3941 4002
0 3941 4002
0 3941 4002
0 3940 4002
0 3938 4002
0 3956 3997
3245 4017 3956
0 3916 4005
0 3916 4005
0 3916 4005
0 3915 4005
0 3913 4005
0 3910 4005
0 3890 4008
3626 4037 3949
0 3595 4042
0 3591 4043
0 3575 4044
0 3541 4048
0 3478 4055
0 3370 4066
923 3192 4084
3994 4043 3952
