dist/LUTS/Anime3.3dl
0 1365 2730 4095
0 0 437
2087 0 233
3454 1431 0
4095 1867 605
0 1786 2331
1763 1772 1039
3464 1098 619
4095 2102 1299
0 2922 3227
0 3227 3153
2706 2732 2763
4095 2160 2391
1963 3920 3981
2659 4045 3958
3667 4053 3769
4095 3469 3106
0 722 1457
1540 0 1107
3277 1244 0
4095 1941 751
0 799 2500
1117 2071 2064
3189 1433 1267
4095 2124 1410
0 2744 3283
756 3148 3314
2663 2811 2897
4095 2252 2542
1451 3770 4004
2426 3951 3973
3687 4059 3807
4095 3501 3178
0 2644 3046
0 2568 2894
2537 1931 2333
4095 2321 1965
0 2462 3067
0 2549 2967
2307 2331 2627
4095 2437 2320
0 2327 3430
559 2565 3394
2460 3322 3221
4095 2719 2880
0 2910 4095
0 2972 4095
3435 4032 3949
4095 3620 3432
0 3811 3895
0 3778 3875
2165 3543 3753
4095 2954 3299
0 3787 3916
0 3766 3905
2240 3748 3771
4095 3091 3361
0 3614 4034
0 3621 4034
1578 3868 3938
4095 3653 3659
0 2760 4095
0 2749 4095
0 2726 4095
4023 4031 3939
